ocio/luts/Log3G10_to_lin.spi1d
Version 1
From 0.0000000000 1.0000000000
Length 4096
Components 1
{
  -1.0000000000e-02
  -9.9839062972e-03
  -9.9677721957e-03
  -9.9515975941e-03
  -9.9353823906e-03
  -9.9191264834e-03
  -9.9028297703e-03
  -9.8864921488e-03
  -9.8701135163e-03
  -9.8536937699e-03
  -9.8372328062e-03
  -9.8207305219e-03
  -9.8041868132e-03
  -9.7876015762e-03
  -9.7709747065e-03
  -9.7543060998e-03
  -9.7375956511e-03
  -9.7208432556e-03
  -9.7040488078e-03
  -9.6872122023e-03
  -9.6703333332e-03
  -9.6534120944e-03
  -9.6364483796e-03
  -9.6194420821e-03
  -9.6023930950e-03
  -9.5853013112e-03
  -9.5681666233e-03
  -9.5509889235e-03
  -9.5337681039e-03
  -9.5165040563e-03
  -9.4991966721e-03
  -9.4818458425e-03
  -9.4644514586e-03
  -9.4470134109e-03
  -9.4295315898e-03
  -9.4120058855e-03
  -9.3944361879e-03
  -9.3768223864e-03
  -9.3591643704e-03
  -9.3414620288e-03
  -9.3237152505e-03
  -9.3059239239e-03
  -9.2880879371e-03
  -9.2702071781e-03
  -9.2522815344e-03
  -9.2343108934e-03
  -9.2162951421e-03
  -9.1982341673e-03
  -9.1801278555e-03
  -9.1619760928e-03
  -9.1437787652e-03
  -9.1255357583e-03
  -9.1072469575e-03
  -9.0889122477e-03
  -9.0705315137e-03
  -9.0521046401e-03
  -9.0336315109e-03
  -9.0151120101e-03
  -8.9965460213e-03
  -8.9779334277e-03
  -8.9592741124e-03
  -8.9405679582e-03
  -8.9218148473e-03
  -8.9030146621e-03
  -8.8841672842e-03
  -8.8652725952e-03
  -8.8463304764e-03
  -8.8273408087e-03
  -8.8083034727e-03
  -8.7892183489e-03
  -8.7700853171e-03
  -8.7509042573e-03
  -8.7316750487e-03
  -8.7123975706e-03
  -8.6930717018e-03
  -8.6736973207e-03
  -8.6542743057e-03
  -8.6348025347e-03
  -8.6152818852e-03
  -8.5957122346e-03
  -8.5760934598e-03
  -8.5564254376e-03
  -8.5367080443e-03
  -8.5169411560e-03
  -8.4971246485e-03
  -8.4772583971e-03
  -8.4573422771e-03
  -8.4373761632e-03
  -8.4173599300e-03
  -8.3972934516e-03
  -8.3771766020e-03
  -8.3570092546e-03
  -8.3367912827e-03
  -8.3165225592e-03
  -8.2962029568e-03
  -8.2758323477e-03
  -8.2554106039e-03
  -8.2349375970e-03
  -8.2144131983e-03
  -8.1938372788e-03
  -8.1732097093e-03
  -8.1525303600e-03
  -8.1317991010e-03
  -8.1110158020e-03
  -8.0901803323e-03
  -8.0692925609e-03
  -8.0483523567e-03
  -8.0273595879e-03
  -8.0063141227e-03
  -7.9852158286e-03
  -7.9640645733e-03
  -7.9428602236e-03
  -7.9216026463e-03
  -7.9002917078e-03
  -7.8789272741e-03
  -7.8575092110e-03
  -7.8360373838e-03
  -7.8145116576e-03
  -7.7929318971e-03
  -7.7712979667e-03
  -7.7496097303e-03
  -7.7278670516e-03
  -7.7060697941e-03
  -7.6842178206e-03
  -7.6623109938e-03
  -7.6403491760e-03
  -7.6183322293e-03
  -7.5962600152e-03
  -7.5741323949e-03
  -7.5519492294e-03
  -7.5297103793e-03
  -7.5074157048e-03
  -7.4850650657e-03
  -7.4626583216e-03
  -7.4401953316e-03
  -7.4176759546e-03
  -7.3951000490e-03
  -7.3724674728e-03
  -7.3497780839e-03
  -7.3270317396e-03
  -7.3042282970e-03
  -7.2813676127e-03
  -7.2584495431e-03
  -7.2354739441e-03
  -7.2124406712e-03
  -7.1893495797e-03
  -7.1662005245e-03
  -7.1429933601e-03
  -7.1197279405e-03
  -7.0964041197e-03
  -7.0730217509e-03
  -7.0495806872e-03
  -7.0260807812e-03
  -7.0025218853e-03
  -6.9789038514e-03
  -6.9552265310e-03
  -6.9314897753e-03
  -6.9076934352e-03
  -6.8838373609e-03
  -6.8599214027e-03
  -6.8359454101e-03
  -6.8119092325e-03
  -6.7878127188e-03
  -6.7636557175e-03
  -6.7394380768e-03
  -6.7151596445e-03
  -6.6908202680e-03
  -6.6664197943e-03
  -6.6419580700e-03
  -6.6174349414e-03
  -6.5928502543e-03
  -6.5682038542e-03
  -6.5434955863e-03
  -6.5187252951e-03
  -6.4938928250e-03
  -6.4689980200e-03
  -6.4440407235e-03
  -6.4190207787e-03
  -6.3939380283e-03
  -6.3687923147e-03
  -6.3435834798e-03
  -6.3183113651e-03
  -6.2929758119e-03
  -6.2675766609e-03
  -6.2421137523e-03
  -6.2165869263e-03
  -6.1909960223e-03
  -6.1653408795e-03
  -6.1396213366e-03
  -6.1138372320e-03
  -6.0879884036e-03
  -6.0620746889e-03
  -6.0360959251e-03
  -6.0100519489e-03
  -5.9839425966e-03
  -5.9577677040e-03
  -5.9315271067e-03
  -5.9052206396e-03
  -5.8788481376e-03
  -5.8524094347e-03
  -5.8259043649e-03
  -5.7993327615e-03
  -5.7726944575e-03
  -5.7459892855e-03
  -5.7192170777e-03
  -5.6923776657e-03
  -5.6654708808e-03
  -5.6384965540e-03
  -5.6114545156e-03
  -5.5843445958e-03
  -5.5571666241e-03
  -5.5299204297e-03
  -5.5026058414e-03
  -5.4752226874e-03
  -5.4477707956e-03
  -5.4202499936e-03
  -5.3926601082e-03
  -5.3650009662e-03
  -5.3372723936e-03
  -5.3094742162e-03
  -5.2816062593e-03
  -5.2536683476e-03
  -5.2256603056e-03
  -5.1975819572e-03
  -5.1694331260e-03
  -5.1412136350e-03
  -5.1129233069e-03
  -5.0845619638e-03
  -5.0561294274e-03
  -5.0276255192e-03
  -4.9990500598e-03
  -4.9704028697e-03
  -4.9416837689e-03
  -4.9128925768e-03
  -4.8840291125e-03
  -4.8550931944e-03
  -4.8260846409e-03
  -4.7970032695e-03
  -4.7678488974e-03
  -4.7386213414e-03
  -4.7093204179e-03
  -4.6799459425e-03
  -4.6504977307e-03
  -4.6209755974e-03
  -4.5913793571e-03
  -4.5617088236e-03
  -4.5319638106e-03
  -4.5021441311e-03
  -4.4722495975e-03
  -4.4422800221e-03
  -4.4122352164e-03
  -4.3821149917e-03
  -4.3519191586e-03
  -4.3216475272e-03
  -4.2912999074e-03
  -4.2608761083e-03
  -4.2303759389e-03
  -4.1997992072e-03
  -4.1691457212e-03
  -4.1384152882e-03
  -4.1076077151e-03
  -4.0767228081e-03
  -4.0457603732e-03
  -4.0147202158e-03
  -3.9836021408e-03
  -3.9524059525e-03
  -3.9211314548e-03
  -3.8897784513e-03
  -3.8583467449e-03
  -3.8268361379e-03
  -3.7952464324e-03
  -3.7635774297e-03
  -3.7318289309e-03
  -3.7000007363e-03
  -3.6680926459e-03
  -3.6361044592e-03
  -3.6040359751e-03
  -3.5718869920e-03
  -3.5396573079e-03
  -3.5073467201e-03
  -3.4749550257e-03
  -3.4424820209e-03
  -3.4099275018e-03
  -3.3772912636e-03
  -3.3445731013e-03
  -3.3117728092e-03
  -3.2788901811e-03
  -3.2459250104e-03
  -3.2128770898e-03
  -3.1797462116e-03
  -3.1465321676e-03
  -3.1132347491e-03
  -3.0798537467e-03
  -3.0463889506e-03
  -3.0128401505e-03
  -2.9792071355e-03
  -2.9454896942e-03
  -2.9116876147e-03
  -2.8778006845e-03
  -2.8438286907e-03
  -2.8097714197e-03
  -2.7756286574e-03
  -2.7414001892e-03
  -2.7070858000e-03
  -2.6726852742e-03
  -2.6381983954e-03
  -2.6036249470e-03
  -2.5689647116e-03
  -2.5342174714e-03
  -2.4993830079e-03
  -2.4644611022e-03
  -2.4294515349e-03
  -2.3943540858e-03
  -2.3591685343e-03
  -2.3238946594e-03
  -2.2885322393e-03
  -2.2530810517e-03
  -2.2175408738e-03
  -2.1819114822e-03
  -2.1461926530e-03
  -2.1103841617e-03
  -2.0744857831e-03
  -2.0384972917e-03
  -2.0024184612e-03
  -1.9662490649e-03
  -1.9299888755e-03
  -1.8936376650e-03
  -1.8571952049e-03
  -1.8206612662e-03
  -1.7840356193e-03
  -1.7473180339e-03
  -1.7105082793e-03
  -1.6736061241e-03
  -1.6366113363e-03
  -1.5995236834e-03
  -1.5623429324e-03
  -1.5250688495e-03
  -1.4877012004e-03
  -1.4502397503e-03
  -1.4126842636e-03
  -1.3750345045e-03
  -1.3372902361e-03
  -1.2994512212e-03
  -1.2615172222e-03
  -1.2234880004e-03
  -1.1853633168e-03
  -1.1471429319e-03
  -1.1088266054e-03
  -1.0704140965e-03
  -1.0319051637e-03
  -9.9329956500e-04
  -9.5459705773e-04
  -9.1579739862e-04
  -8.7690034382e-04
  -8.3790564883e-04
  -7.9881306855e-04
  -7.5962235728e-04
  -7.2033326867e-04
  -6.8094555579e-04
  -6.4145897106e-04
  -6.0187326630e-04
  -5.6218819269e-04
  -5.2240350079e-04
  -4.8251894054e-04
  -4.4253426124e-04
  -4.0244921158e-04
  -3.6226353961e-04
  -3.2197699274e-04
  -2.8158931774e-04
  -2.4110026078e-04
  -2.0050956736e-04
  -1.5981698234e-04
  -1.1902224996e-04
  -7.8125113800e-05
  -3.7125316811e-05
  3.9773987107e-06
  4.5183291114e-05
  8.6492619394e-05
  1.2790564320e-04
  1.6942262283e-04
  2.1104381923e-04
  2.5276949402e-04
  2.9459990945e-04
  3.3653532845e-04
  3.7857601461e-04
  4.2072223215e-04
  4.6297424600e-04
  5.0533232172e-04
  5.4779672555e-04
  5.9036772441e-04
  6.3304558586e-04
  6.7583057815e-04
  7.1872297021e-04
  7.6172303163e-04
  8.0483103270e-04
  8.4804724435e-04
  8.9137193822e-04
  9.3480538664e-04
  9.7834786258e-04
  1.0219996397e-03
  1.0657609925e-03
  1.1096321959e-03
  1.1536135257e-03
  1.1977052583e-03
  1.2419076709e-03
  1.2862210413e-03
  1.3306456481e-03
  1.3751817704e-03
  1.4198296882e-03
  1.4645896821e-03
  1.5094620335e-03
  1.5544470243e-03
  1.5995449375e-03
  1.6447560563e-03
  1.6900806650e-03
  1.7355190485e-03
  1.7810714923e-03
  1.8267382828e-03
  1.8725197071e-03
  1.9184160528e-03
  1.9644276084e-03
  2.0105546632e-03
  2.0567975071e-03
  2.1031564307e-03
  2.1496317255e-03
  2.1962236835e-03
  2.2429325975e-03
  2.2897587613e-03
  2.3367024690e-03
  2.3837640159e-03
  2.4309436975e-03
  2.4782418106e-03
  2.5256586524e-03
  2.5731945209e-03
  2.6208497149e-03
  2.6686245340e-03
  2.7165192784e-03
  2.7645342492e-03
  2.8126697481e-03
  2.8609260777e-03
  2.9093035414e-03
  2.9578024432e-03
  3.0064230880e-03
  3.0551657812e-03
  3.1040308294e-03
  3.1530185396e-03
  3.2021292198e-03
  3.2513631787e-03
  3.3007207256e-03
  3.3502021708e-03
  3.3998078254e-03
  3.4495380011e-03
  3.4993930106e-03
  3.5493731671e-03
  3.5994787848e-03
  3.6497101787e-03
  3.7000676644e-03
  3.7505515586e-03
  3.8011621784e-03
  3.8518998421e-03
  3.9027648685e-03
  3.9537575773e-03
  4.0048782891e-03
  4.0561273251e-03
  4.1075050075e-03
  4.1590116593e-03
  4.2106476040e-03
  4.2624131664e-03
  4.3143086718e-03
  4.3663344464e-03
  4.4184908171e-03
  4.4707781118e-03
  4.5231966591e-03
  4.5757467886e-03
  4.6284288305e-03
  4.6812431159e-03
  4.7341899768e-03
  4.7872697460e-03
  4.8404827572e-03
  4.8938293447e-03
  4.9473098440e-03
  5.0009245911e-03
  5.0546739230e-03
  5.1085581776e-03
  5.1625776936e-03
  5.2167328104e-03
  5.2710238686e-03
  5.3254512093e-03
  5.3800151746e-03
  5.4347161075e-03
  5.4895543518e-03
  5.5445302522e-03
  5.5996441543e-03
  5.6548964043e-03
  5.7102873498e-03
  5.7658173387e-03
  5.8214867201e-03
  5.8772958439e-03
  5.9332450610e-03
  5.9893347229e-03
  6.0455651823e-03
  6.1019367925e-03
  6.1584499079e-03
  6.2151048837e-03
  6.2719020759e-03
  6.3288418416e-03
  6.3859245387e-03
  6.4431505260e-03
  6.5005201631e-03
  6.5580338107e-03
  6.6156918302e-03
  6.6734945840e-03
  6.7314424355e-03
  6.7895357489e-03
  6.8477748893e-03
  6.9061602228e-03
  6.9646921164e-03
  7.0233709379e-03
  7.0821970562e-03
  7.1411708411e-03
  7.2002926631e-03
  7.2595628940e-03
  7.3189819062e-03
  7.3785500732e-03
  7.4382677695e-03
  7.4981353704e-03
  7.5581532521e-03
  7.6183217920e-03
  7.6786413682e-03
  7.7391123598e-03
  7.7997351469e-03
  7.8605101106e-03
  7.9214376329e-03
  7.9825180967e-03
  8.0437518859e-03
  8.1051393854e-03
  8.1666809811e-03
  8.2283770598e-03
  8.2902280093e-03
  8.3522342182e-03
  8.4143960764e-03
  8.4767139746e-03
  8.5391883045e-03
  8.6018194587e-03
  8.6646078310e-03
  8.7275538159e-03
  8.7906578090e-03
  8.8539202072e-03
  8.9173414079e-03
  8.9809218098e-03
  9.0446618125e-03
  9.1085618167e-03
  9.1726222240e-03
  9.2368434371e-03
  9.3012258596e-03
  9.3657698961e-03
  9.4304759524e-03
  9.4953444352e-03
  9.5603757522e-03
  9.6255703121e-03
  9.6909285248e-03
  9.7564508010e-03
  9.8221375525e-03
  9.8879891923e-03
  9.9540061342e-03
  1.0020188793e-02
  1.0086537585e-02
  1.0153052927e-02
  1.0219735238e-02
  1.0286584936e-02
  1.0353602441e-02
  1.0420788175e-02
  1.0488142559e-02
  1.0555666019e-02
  1.0623358977e-02
  1.0691221859e-02
  1.0759255092e-02
  1.0827459103e-02
  1.0895834322e-02
  1.0964381178e-02
  1.1033100101e-02
  1.1101991524e-02
  1.1171055879e-02
  1.1240293601e-02
  1.1309705126e-02
  1.1379290888e-02
  1.1449051326e-02
  1.1518986878e-02
  1.1589097984e-02
  1.1659385084e-02
  1.1729848621e-02
  1.1800489036e-02
  1.1871306774e-02
  1.1942302281e-02
  1.2013476002e-02
  1.2084828384e-02
  1.2156359877e-02
  1.2228070930e-02
  1.2299961993e-02
  1.2372033519e-02
  1.2444285960e-02
  1.2516719770e-02
  1.2589335406e-02
  1.2662133322e-02
  1.2735113978e-02
  1.2808277831e-02
  1.2881625341e-02
  1.2955156970e-02
  1.3028873180e-02
  1.3102774433e-02
  1.3176861195e-02
  1.3251133931e-02
  1.3325593108e-02
  1.3400239194e-02
  1.3475072658e-02
  1.3550093971e-02
  1.3625303603e-02
  1.3700702029e-02
  1.3776289721e-02
  1.3852067154e-02
  1.3928034806e-02
  1.4004193154e-02
  1.4080542675e-02
  1.4157083851e-02
  1.4233817162e-02
  1.4310743091e-02
  1.4387862121e-02
  1.4465174736e-02
  1.4542681423e-02
  1.4620382669e-02
  1.4698278962e-02
  1.4776370793e-02
  1.4854658650e-02
  1.4933143028e-02
  1.5011824419e-02
  1.5090703317e-02
  1.5169780219e-02
  1.5249055621e-02
  1.5328530022e-02
  1.5408203922e-02
  1.5488077820e-02
  1.5568152220e-02
  1.5648427624e-02
  1.5728904536e-02
  1.5809583464e-02
  1.5890464914e-02
  1.5971549393e-02
  1.6052837413e-02
  1.6134329484e-02
  1.6216026117e-02
  1.6297927828e-02
  1.6380035129e-02
  1.6462348538e-02
  1.6544868572e-02
  1.6627595750e-02
  1.6710530590e-02
  1.6793673616e-02
  1.6877025349e-02
  1.6960586313e-02
  1.7044357033e-02
  1.7128338037e-02
  1.7212529851e-02
  1.7296933006e-02
  1.7381548031e-02
  1.7466375458e-02
  1.7551415821e-02
  1.7636669654e-02
  1.7722137493e-02
  1.7807819875e-02
  1.7893717338e-02
  1.7979830423e-02
  1.8066159672e-02
  1.8152705625e-02
  1.8239468828e-02
  1.8326449826e-02
  1.8413649165e-02
  1.8501067394e-02
  1.8588705062e-02
  1.8676562719e-02
  1.8764640919e-02
  1.8852940215e-02
  1.8941461161e-02
  1.9030204314e-02
  1.9119170232e-02
  1.9208359475e-02
  1.9297772602e-02
  1.9387410175e-02
  1.9477272759e-02
  1.9567360917e-02
  1.9657675217e-02
  1.9748216226e-02
  1.9838984512e-02
  1.9929980647e-02
  2.0021205202e-02
  2.0112658751e-02
  2.0204341869e-02
  2.0296255131e-02
  2.0388399116e-02
  2.0480774403e-02
  2.0573381572e-02
  2.0666221205e-02
  2.0759293887e-02
  2.0852600201e-02
  2.0946140735e-02
  2.1039916076e-02
  2.1133926814e-02
  2.1228173540e-02
  2.1322656845e-02
  2.1417377325e-02
  2.1512335574e-02
  2.1607532189e-02
  2.1702967769e-02
  2.1798642913e-02
  2.1894558222e-02
  2.1990714301e-02
  2.2087111752e-02
  2.2183751182e-02
  2.2280633198e-02
  2.2377758410e-02
  2.2475127427e-02
  2.2572740862e-02
  2.2670599328e-02
  2.2768703441e-02
  2.2867053816e-02
  2.2965651073e-02
  2.3064495830e-02
  2.3163588710e-02
  2.3262930335e-02
  2.3362521329e-02
  2.3462362318e-02
  2.3562453931e-02
  2.3662796795e-02
  2.3763391542e-02
  2.3864238804e-02
  2.3965339215e-02
  2.4066693410e-02
  2.4168302027e-02
  2.4270165703e-02
  2.4372285080e-02
  2.4474660799e-02
  2.4577293504e-02
  2.4680183840e-02
  2.4783332453e-02
  2.4886739991e-02
  2.4990407106e-02
  2.5094334447e-02
  2.5198522670e-02
  2.5302972427e-02
  2.5407684377e-02
  2.5512659177e-02
  2.5617897486e-02
  2.5723399967e-02
  2.5829167283e-02
  2.5935200097e-02
  2.6041499078e-02
  2.6148064892e-02
  2.6254898210e-02
  2.6361999704e-02
  2.6469370045e-02
  2.6577009910e-02
  2.6684919975e-02
  2.6793100918e-02
  2.6901553418e-02
  2.7010278159e-02
  2.7119275822e-02
  2.7228547094e-02
  2.7338092661e-02
  2.7447913211e-02
  2.7558009435e-02
  2.7668382025e-02
  2.7779031674e-02
  2.7889959079e-02
  2.8001164935e-02
  2.8112649943e-02
  2.8224414803e-02
  2.8336460218e-02
  2.8448786891e-02
  2.8561395528e-02
  2.8674286839e-02
  2.8787461531e-02
  2.8900920317e-02
  2.9014663909e-02
  2.9128693023e-02
  2.9243008375e-02
  2.9357610684e-02
  2.9472500670e-02
  2.9587679055e-02
  2.9703146563e-02
  2.9818903920e-02
  2.9934951854e-02
  3.0051291093e-02
  3.0167922370e-02
  3.0284846417e-02
  3.0402063969e-02
  3.0519575763e-02
  3.0637382538e-02
  3.0755485033e-02
  3.0873883992e-02
  3.0992580158e-02
  3.1111574278e-02
  3.1230867099e-02
  3.1350459372e-02
  3.1470351848e-02
  3.1590545280e-02
  3.1711040424e-02
  3.1831838038e-02
  3.1952938880e-02
  3.2074343712e-02
  3.2196053297e-02
  3.2318068400e-02
  3.2440389787e-02
  3.2563018229e-02
  3.2685954495e-02
  3.2809199357e-02
  3.2932753592e-02
  3.3056617975e-02
  3.3180793285e-02
  3.3305280303e-02
  3.3430079810e-02
  3.3555192592e-02
  3.3680619434e-02
  3.3806361125e-02
  3.3932418456e-02
  3.4058792218e-02
  3.4185483207e-02
  3.4312492217e-02
  3.4439820049e-02
  3.4567467501e-02
  3.4695435376e-02
  3.4823724480e-02
  3.4952335617e-02
  3.5081269596e-02
  3.5210527228e-02
  3.5340109325e-02
  3.5470016702e-02
  3.5600250175e-02
  3.5730810563e-02
  3.5861698686e-02
  3.5992915368e-02
  3.6124461432e-02
  3.6256337705e-02
  3.6388545018e-02
  3.6521084199e-02
  3.6653956084e-02
  3.6787161506e-02
  3.6920701303e-02
  3.7054576314e-02
  3.7188787381e-02
  3.7323335348e-02
  3.7458221060e-02
  3.7593445364e-02
  3.7729009111e-02
  3.7864913154e-02
  3.8001158345e-02
  3.8137745542e-02
  3.8274675603e-02
  3.8411949388e-02
  3.8549567761e-02
  3.8687531587e-02
  3.8825841732e-02
  3.8964499066e-02
  3.9103504460e-02
  3.9242858789e-02
  3.9382562928e-02
  3.9522617755e-02
  3.9663024150e-02
  3.9803782997e-02
  3.9944895179e-02
  4.0086361584e-02
  4.0228183101e-02
  4.0370360621e-02
  4.0512895038e-02
  4.0655787248e-02
  4.0799038149e-02
  4.0942648641e-02
  4.1086619628e-02
  4.1230952013e-02
  4.1375646704e-02
  4.1520704611e-02
  4.1666126645e-02
  4.1811913721e-02
  4.1958066754e-02
  4.2104586664e-02
  4.2251474371e-02
  4.2398730798e-02
  4.2546356872e-02
  4.2694353519e-02
  4.2842721671e-02
  4.2991462260e-02
  4.3140576220e-02
  4.3290064489e-02
  4.3439928007e-02
  4.3590167715e-02
  4.3740784558e-02
  4.3891779483e-02
  4.4043153438e-02
  4.4194907375e-02
  4.4347042248e-02
  4.4499559013e-02
  4.4652458629e-02
  4.4805742056e-02
  4.4959410259e-02
  4.5113464203e-02
  4.5267904856e-02
  4.5422733189e-02
  4.5577950176e-02
  4.5733556791e-02
  4.5889554014e-02
  4.6045942823e-02
  4.6202724203e-02
  4.6359899139e-02
  4.6517468619e-02
  4.6675433633e-02
  4.6833795174e-02
  4.6992554237e-02
  4.7151711821e-02
  4.7311268925e-02
  4.7471226553e-02
  4.7631585710e-02
  4.7792347403e-02
  4.7953512644e-02
  4.8115082445e-02
  4.8277057822e-02
  4.8439439793e-02
  4.8602229379e-02
  4.8765427602e-02
  4.8929035488e-02
  4.9093054067e-02
  4.9257484369e-02
  4.9422327426e-02
  4.9587584276e-02
  4.9753255958e-02
  4.9919343512e-02
  5.0085847982e-02
  5.0252770415e-02
  5.0420111860e-02
  5.0587873369e-02
  5.0756055997e-02
  5.0924660800e-02
  5.1093688838e-02
  5.1263141174e-02
  5.1433018873e-02
  5.1603323002e-02
  5.1774054632e-02
  5.1945214836e-02
  5.2116804690e-02
  5.2288825273e-02
  5.2461277665e-02
  5.2634162950e-02
  5.2807482216e-02
  5.2981236551e-02
  5.3155427048e-02
  5.3330054802e-02
  5.3505120910e-02
  5.3680626472e-02
  5.3856572592e-02
  5.4032960375e-02
  5.4209790931e-02
  5.4387065371e-02
  5.4564784808e-02
  5.4742950360e-02
  5.4921563147e-02
  5.5100624292e-02
  5.5280134920e-02
  5.5460096159e-02
  5.5640509140e-02
  5.5821374998e-02
  5.6002694869e-02
  5.6184469893e-02
  5.6366701212e-02
  5.6549389972e-02
  5.6732537321e-02
  5.6916144410e-02
  5.7100212394e-02
  5.7284742428e-02
  5.7469735674e-02
  5.7655193294e-02
  5.7841116453e-02
  5.8027506321e-02
  5.8214364068e-02
  5.8401690869e-02
  5.8589487902e-02
  5.8777756347e-02
  5.8966497387e-02
  5.9155712208e-02
  5.9345402001e-02
  5.9535567957e-02
  5.9726211271e-02
  5.9917333143e-02
  6.0108934772e-02
  6.0301017363e-02
  6.0493582125e-02
  6.0686630266e-02
  6.0880163001e-02
  6.1074181545e-02
  6.1268687119e-02
  6.1463680945e-02
  6.1659164248e-02
  6.1855138257e-02
  6.2051604205e-02
  6.2248563325e-02
  6.2446016856e-02
  6.2643966039e-02
  6.2842412118e-02
  6.3041356341e-02
  6.3240799957e-02
  6.3440744221e-02
  6.3641190389e-02
  6.3842139721e-02
  6.4043593481e-02
  6.4245552933e-02
  6.4448019349e-02
  6.4650994000e-02
  6.4854478162e-02
  6.5058473114e-02
  6.5262980138e-02
  6.5468000520e-02
  6.5673535549e-02
  6.5879586516e-02
  6.6086154716e-02
  6.6293241448e-02
  6.6500848013e-02
  6.6708975717e-02
  6.6917625866e-02
  6.7126799774e-02
  6.7336498755e-02
  6.7546724126e-02
  6.7757477209e-02
  6.7968759329e-02
  6.8180571814e-02
  6.8392915995e-02
  6.8605793206e-02
  6.8819204786e-02
  6.9033152077e-02
  6.9247636422e-02
  6.9462659170e-02
  6.9678221673e-02
  6.9894325285e-02
  7.0110971365e-02
  7.0328161274e-02
  7.0545896378e-02
  7.0764178045e-02
  7.0983007647e-02
  7.1202386560e-02
  7.1422316162e-02
  7.1642797836e-02
  7.1863832968e-02
  7.2085422947e-02
  7.2307569165e-02
  7.2530273019e-02
  7.2753535909e-02
  7.2977359238e-02
  7.3201744414e-02
  7.3426692845e-02
  7.3652205946e-02
  7.3878285136e-02
  7.4104931833e-02
  7.4332147464e-02
  7.4559933457e-02
  7.4788291242e-02
  7.5017222256e-02
  7.5246727937e-02
  7.5476809728e-02
  7.5707469075e-02
  7.5938707428e-02
  7.6170526240e-02
  7.6402926969e-02
  7.6635911074e-02
  7.6869480022e-02
  7.7103635278e-02
  7.7338378316e-02
  7.7573710611e-02
  7.7809633642e-02
  7.8046148891e-02
  7.8283257846e-02
  7.8520961997e-02
  7.8759262838e-02
  7.8998161866e-02
  7.9237660584e-02
  7.9477760496e-02
  7.9718463112e-02
  7.9959769945e-02
  8.0201682510e-02
  8.0444202330e-02
  8.0687330928e-02
  8.0931069833e-02
  8.1175420576e-02
  8.1420384693e-02
  8.1665963724e-02
  8.1912159213e-02
  8.2158972706e-02
  8.2406405756e-02
  8.2654459917e-02
  8.2903136750e-02
  8.3152437815e-02
  8.3402364682e-02
  8.3652918920e-02
  8.3904102104e-02
  8.4155915814e-02
  8.4408361631e-02
  8.4661441143e-02
  8.4915155941e-02
  8.5169507619e-02
  8.5424497775e-02
  8.5680128013e-02
  8.5936399940e-02
  8.6193315165e-02
  8.6450875304e-02
  8.6709081976e-02
  8.6967936804e-02
  8.7227441414e-02
  8.7487597439e-02
  8.7748406512e-02
  8.8009870273e-02
  8.8271990366e-02
  8.8534768439e-02
  8.8798206142e-02
  8.9062305132e-02
  8.9327067069e-02
  8.9592493617e-02
  8.9858586444e-02
  9.0125347222e-02
  9.0392777629e-02
  9.0660879345e-02
  9.0929654056e-02
  9.1199103451e-02
  9.1469229222e-02
  9.1740033070e-02
  9.2011516694e-02
  9.2283681802e-02
  9.2556530105e-02
  9.2830063317e-02
  9.3104283158e-02
  9.3379191351e-02
  9.3654789625e-02
  9.3931079710e-02
  9.4208063345e-02
  9.4485742270e-02
  9.4764118230e-02
  9.5043192975e-02
  9.5322968260e-02
  9.5603445842e-02
  9.5884627485e-02
  9.6166514955e-02
  9.6449110025e-02
  9.6732414472e-02
  9.7016430075e-02
  9.7301158619e-02
  9.7586601895e-02
  9.7872761697e-02
  9.8159639823e-02
  9.8447238076e-02
  9.8735558265e-02
  9.9024602200e-02
  9.9314371700e-02
  9.9604868585e-02
  9.9896094681e-02
  1.0018805182e-01
  1.0048074183e-01
  1.0077416657e-01
  1.0106832786e-01
  1.0136322756e-01
  1.0165886752e-01
  1.0195524961e-01
  1.0225237568e-01
  1.0255024760e-01
  1.0284886725e-01
  1.0314823650e-01
  1.0344835723e-01
  1.0374923133e-01
  1.0405086069e-01
  1.0435324721e-01
  1.0465639278e-01
  1.0496029932e-01
  1.0526496873e-01
  1.0557040292e-01
  1.0587660383e-01
  1.0618357336e-01
  1.0649131346e-01
  1.0679982605e-01
  1.0710911308e-01
  1.0741917648e-01
  1.0773001821e-01
  1.0804164023e-01
  1.0835404448e-01
  1.0866723294e-01
  1.0898120757e-01
  1.0929597034e-01
  1.0961152324e-01
  1.0992786825e-01
  1.1024500735e-01
  1.1056294254e-01
  1.1088167582e-01
  1.1120120919e-01
  1.1152154466e-01
  1.1184268424e-01
  1.1216462995e-01
  1.1248738382e-01
  1.1281094787e-01
  1.1313532414e-01
  1.1346051466e-01
  1.1378652149e-01
  1.1411334666e-01
  1.1444099224e-01
  1.1476946027e-01
  1.1509875284e-01
  1.1542887200e-01
  1.1575981984e-01
  1.1609159843e-01
  1.1642420985e-01
  1.1675765620e-01
  1.1709193958e-01
  1.1742706208e-01
  1.1776302581e-01
  1.1809983289e-01
  1.1843748542e-01
  1.1877598554e-01
  1.1911533537e-01
  1.1945553704e-01
  1.1979659269e-01
  1.2013850447e-01
  1.2048127452e-01
  1.2082490500e-01
  1.2116939807e-01
  1.2151475589e-01
  1.2186098063e-01
  1.2220807448e-01
  1.2255603961e-01
  1.2290487821e-01
  1.2325459247e-01
  1.2360518458e-01
  1.2395665677e-01
  1.2430901122e-01
  1.2466225017e-01
  1.2501637582e-01
  1.2537139040e-01
  1.2572729615e-01
  1.2608409530e-01
  1.2644179009e-01
