ocio/luts/LogC4_to_lin.spi1d
Version 1
From 0.0000000000 1.0000000000
Length 4096
Components 1
{
  -1.8056996120e-02
  -1.8029219389e-02
  -1.8001370001e-02
  -1.7973447766e-02
  -1.7945452494e-02
  -1.7917383994e-02
  -1.7889242073e-02
  -1.7861026541e-02
  -1.7832737204e-02
  -1.7804373870e-02
  -1.7775936345e-02
  -1.7747424434e-02
  -1.7718837944e-02
  -1.7690176678e-02
  -1.7661440443e-02
  -1.7632629041e-02
  -1.7603742275e-02
  -1.7574779950e-02
  -1.7545741866e-02
  -1.7516627827e-02
  -1.7487437632e-02
  -1.7458171084e-02
  -1.7428827982e-02
  -1.7399408126e-02
  -1.7369911315e-02
  -1.7340337349e-02
  -1.7310686024e-02
  -1.7280957140e-02
  -1.7251150492e-02
  -1.7221265878e-02
  -1.7191303093e-02
  -1.7161261934e-02
  -1.7131142195e-02
  -1.7100943670e-02
  -1.7070666154e-02
  -1.7040309439e-02
  -1.7009873320e-02
  -1.6979357587e-02
  -1.6948762034e-02
  -1.6918086450e-02
  -1.6887330626e-02
  -1.6856494354e-02
  -1.6825577422e-02
  -1.6794579619e-02
  -1.6763500734e-02
  -1.6732340555e-02
  -1.6701098869e-02
  -1.6669775462e-02
  -1.6638370122e-02
  -1.6606882634e-02
  -1.6575312782e-02
  -1.6543660352e-02
  -1.6511925127e-02
  -1.6480106892e-02
  -1.6448205428e-02
  -1.6416220518e-02
  -1.6384151943e-02
  -1.6351999486e-02
  -1.6319762927e-02
  -1.6287442044e-02
  -1.6255036619e-02
  -1.6222546430e-02
  -1.6189971255e-02
  -1.6157310871e-02
  -1.6124565056e-02
  -1.6091733587e-02
  -1.6058816240e-02
  -1.6025812789e-02
  -1.5992723009e-02
  -1.5959546676e-02
  -1.5926283561e-02
  -1.5892933439e-02
  -1.5859496082e-02
  -1.5825971261e-02
  -1.5792358748e-02
  -1.5758658314e-02
  -1.5724869728e-02
  -1.5690992759e-02
  -1.5657027178e-02
  -1.5622972751e-02
  -1.5588829247e-02
  -1.5554596432e-02
  -1.5520274073e-02
  -1.5485861935e-02
  -1.5451359785e-02
  -1.5416767385e-02
  -1.5382084501e-02
  -1.5347310896e-02
  -1.5312446332e-02
  -1.5277490571e-02
  -1.5242443375e-02
  -1.5207304504e-02
  -1.5172073720e-02
  -1.5136750781e-02
  -1.5101335446e-02
  -1.5065827474e-02
  -1.5030226622e-02
  -1.4994532648e-02
  -1.4958745307e-02
  -1.4922864357e-02
  -1.4886889550e-02
  -1.4850820644e-02
  -1.4814657390e-02
  -1.4778399542e-02
  -1.4742046854e-02
  -1.4705599076e-02
  -1.4669055960e-02
  -1.4632417257e-02
  -1.4595682717e-02
  -1.4558852089e-02
  -1.4521925121e-02
  -1.4484901562e-02
  -1.4447781159e-02
  -1.4410563659e-02
  -1.4373248807e-02
  -1.4335836349e-02
  -1.4298326030e-02
  -1.4260717594e-02
  -1.4223010784e-02
  -1.4185205343e-02
  -1.4147301012e-02
  -1.4109297534e-02
  -1.4071194648e-02
  -1.4032992095e-02
  -1.3994689614e-02
  -1.3956286944e-02
  -1.3917783822e-02
  -1.3879179986e-02
  -1.3840475173e-02
  -1.3801669118e-02
  -1.3762761556e-02
  -1.3723752222e-02
  -1.3684640850e-02
  -1.3645427173e-02
  -1.3606110923e-02
  -1.3566691832e-02
  -1.3527169630e-02
  -1.3487544049e-02
  -1.3447814818e-02
  -1.3407981665e-02
  -1.3368044319e-02
  -1.3328002508e-02
  -1.3287855957e-02
  -1.3247604393e-02
  -1.3207247542e-02
  -1.3166785128e-02
  -1.3126216875e-02
  -1.3085542505e-02
  -1.3044761742e-02
  -1.3003874307e-02
  -1.2962879922e-02
  -1.2921778305e-02
  -1.2880569177e-02
  -1.2839252257e-02
  -1.2797827263e-02
  -1.2756293912e-02
  -1.2714651920e-02
  -1.2672901003e-02
  -1.2631040877e-02
  -1.2589071256e-02
  -1.2546991853e-02
  -1.2504802382e-02
  -1.2462502553e-02
  -1.2420092079e-02
  -1.2377570671e-02
  -1.2334938037e-02
  -1.2292193888e-02
  -1.2249337931e-02
  -1.2206369874e-02
  -1.2163289424e-02
  -1.2120096286e-02
  -1.2076790166e-02
  -1.2033370769e-02
  -1.1989837798e-02
  -1.1946190956e-02
  -1.1902429945e-02
  -1.1858554467e-02
  -1.1814564222e-02
  -1.1770458910e-02
  -1.1726238230e-02
  -1.1681901880e-02
  -1.1637449557e-02
  -1.1592880959e-02
  -1.1548195781e-02
  -1.1503393718e-02
  -1.1458474465e-02
  -1.1413437714e-02
  -1.1368283159e-02
  -1.1323010492e-02
  -1.1277619403e-02
  -1.1232109582e-02
  -1.1186480720e-02
  -1.1140732504e-02
  -1.1094864623e-02
  -1.1048876764e-02
  -1.1002768612e-02
  -1.0956539853e-02
  -1.0910190172e-02
  -1.0863719252e-02
  -1.0817126777e-02
  -1.0770412427e-02
  -1.0723575885e-02
  -1.0676616831e-02
  -1.0629534944e-02
  -1.0582329902e-02
  -1.0535001385e-02
  -1.0487549069e-02
  -1.0439972630e-02
  -1.0392271743e-02
  -1.0344446083e-02
  -1.0296495323e-02
  -1.0248419137e-02
  -1.0200217196e-02
  -1.0151889171e-02
  -1.0103434733e-02
  -1.0054853550e-02
  -1.0006145292e-02
  -9.9573096253e-03
  -9.9083462174e-03
  -9.8592547339e-03
  -9.8100348398e-03
  -9.7606861992e-03
  -9.7112084754e-03
  -9.6616013308e-03
  -9.6118644267e-03
  -9.5619974238e-03
  -9.5119999818e-03
  -9.4618717594e-03
  -9.4116124147e-03
  -9.3612216045e-03
  -9.3106989850e-03
  -9.2600442116e-03
  -9.2092569383e-03
  -9.1583368188e-03
  -9.1072835054e-03
  -9.0560966499e-03
  -9.0047759028e-03
  -8.9533209139e-03
  -8.9017313322e-03
  -8.8500068055e-03
  -8.7981469809e-03
  -8.7461515044e-03
  -8.6940200213e-03
  -8.6417521758e-03
  -8.5893476111e-03
  -8.5368059698e-03
  -8.4841268931e-03
  -8.4313100216e-03
  -8.3783549949e-03
  -8.3252614517e-03
  -8.2720290294e-03
  -8.2186573650e-03
  -8.1651460942e-03
  -8.1114948518e-03
  -8.0577032717e-03
  -8.0037709868e-03
  -7.9496976290e-03
  -7.8954828293e-03
  -7.8411262178e-03
  -7.7866274236e-03
  -7.7319860746e-03
  -7.6772017981e-03
  -7.6222742201e-03
  -7.5672029658e-03
  -7.5119876594e-03
  -7.4566279242e-03
  -7.4011233822e-03
  -7.3454736548e-03
  -7.2896783621e-03
  -7.2337371234e-03
  -7.1776495570e-03
  -7.1214152800e-03
  -7.0650339088e-03
  -7.0085050586e-03
  -6.9518283436e-03
  -6.8950033770e-03
  -6.8380297710e-03
  -6.7809071369e-03
  -6.7236350848e-03
  -6.6662132239e-03
  -6.6086411623e-03
  -6.5509185072e-03
  -6.4930448645e-03
  -6.4350198395e-03
  -6.3768430360e-03
  -6.3185140572e-03
  -6.2600325049e-03
  -6.2013979800e-03
  -6.1426100824e-03
  -6.0836684109e-03
  -6.0245725634e-03
  -5.9653221364e-03
  -5.9059167258e-03
  -5.8463559259e-03
  -5.7866393305e-03
  -5.7267665320e-03
  -5.6667371218e-03
  -5.6065506903e-03
  -5.5462068267e-03
  -5.4857051192e-03
  -5.4250451549e-03
  -5.3642265199e-03
  -5.3032487992e-03
  -5.2421115766e-03
  -5.1808144348e-03
  -5.1193569557e-03
  -5.0577387198e-03
  -4.9959593065e-03
  -4.9340182944e-03
  -4.8719152606e-03
  -4.8096497815e-03
  -4.7472214320e-03
  -4.6846297861e-03
  -4.6218744168e-03
  -4.5589548957e-03
  -4.4958707935e-03
  -4.4326216797e-03
  -4.3692071226e-03
  -4.3056266895e-03
  -4.2418799464e-03
  -4.1779664585e-03
  -4.1138857894e-03
  -4.0496375020e-03
  -3.9852211577e-03
  -3.9206363170e-03
  -3.8558825392e-03
  -3.7909593822e-03
  -3.7258664032e-03
  -3.6606031578e-03
  -3.5951692007e-03
  -3.5295640853e-03
  -3.4637873641e-03
  -3.3978385880e-03
  -3.3317173070e-03
  -3.2654230699e-03
  -3.1989554243e-03
  -3.1323139166e-03
  -3.0654980920e-03
  -2.9985074946e-03
  -2.9313416671e-03
  -2.8640001513e-03
  -2.7964824876e-03
  -2.7287882152e-03
  -2.6609168722e-03
  -2.5928679954e-03
  -2.5246411203e-03
  -2.4562357815e-03
  -2.3876515121e-03
  -2.3188878440e-03
  -2.2499443080e-03
  -2.1808204336e-03
  -2.1115157492e-03
  -2.0420297816e-03
  -1.9723620569e-03
  -1.9025120994e-03
  -1.8324794326e-03
  -1.7622635785e-03
  -1.6918640580e-03
  -1.6212803906e-03
  -1.5505120947e-03
  -1.4795586873e-03
  -1.4084196842e-03
  -1.3370945999e-03
  -1.2655829477e-03
  -1.1938842396e-03
  -1.1219979863e-03
  -1.0499236973e-03
  -9.7766088059e-04
  -9.0520904313e-04
  -8.3256769049e-04
  -7.5973632692e-04
  -6.8671445542e-04
  -6.1350157767e-04
  -5.4009719404e-04
  -4.6650080359e-04
  -3.9271190411e-04
  -3.1872999202e-04
  -2.4455456245e-04
  -1.7018510923e-04
  -9.5621124825e-05
  -2.0862100398e-05
  5.4092474225e-05
  1.2924311055e-04
  2.0459032143e-04
  2.8013462105e-04
  3.5587652494e-04
  4.3181654999e-04
  5.0795521442e-04
  5.8429303783e-04
  6.6083054116e-04
  7.3756824673e-04
  8.1450667821e-04
  8.9164636065e-04
  9.6898782047e-04
  1.0465315855e-03
  1.1242781848e-03
  1.2022281491e-03
  1.2803820102e-03
  1.3587403016e-03
  1.4373035578e-03
  1.5160723152e-03
  1.5950471112e-03
  1.6742284847e-03
  1.7536169762e-03
  1.8332131273e-03
  1.9130174813e-03
  1.9930305828e-03
  2.0732529777e-03
  2.1536852137e-03
  2.2343278394e-03
  2.3151814054e-03
  2.3962464632e-03
  2.4775235662e-03
  2.5590132690e-03
  2.6407161277e-03
  2.7226326999e-03
  2.8047635446e-03
  2.8871092222e-03
  2.9696702947e-03
  3.0524473256e-03
  3.1354408797e-03
  3.2186515233e-03
  3.3020798244e-03
  3.3857263523e-03
  3.4695916778e-03
  3.5536763732e-03
  3.6379810123e-03
  3.7225061705e-03
  3.8072524245e-03
  3.8922203527e-03
  3.9774105350e-03
  4.0628235527e-03
  4.1484599886e-03
  4.2343204272e-03
  4.3204054544e-03
  4.4067156578e-03
  4.4932516262e-03
  4.5800139502e-03
  4.6670032219e-03
  4.7542200350e-03
  4.8416649846e-03
  4.9293386675e-03
  5.0172416820e-03
  5.1053746279e-03
  5.1937381068e-03
  5.2823327215e-03
  5.3711590768e-03
  5.4602177787e-03
  5.5495094351e-03
  5.6390346553e-03
  5.7287940502e-03
  5.8187882324e-03
  5.9090178160e-03
  5.9994834168e-03
  6.0901856520e-03
  6.1811251408e-03
  6.2723025037e-03
  6.3637183628e-03
  6.4553733422e-03
  6.5472680671e-03
  6.6394031648e-03
  6.7317792640e-03
  6.8243969951e-03
  6.9172569901e-03
  7.0103598827e-03
  7.1037063083e-03
  7.1972969040e-03
  7.2911323083e-03
  7.3852131617e-03
  7.4795401062e-03
  7.5741137855e-03
  7.6689348449e-03
  7.7640039317e-03
  7.8593216944e-03
  7.9548887837e-03
  8.0507058517e-03
  8.1467735523e-03
  8.2430925410e-03
  8.3396634752e-03
  8.4364870138e-03
  8.5335638177e-03
  8.6308945494e-03
  8.7284798729e-03
  8.8263204543e-03
  8.9244169613e-03
  9.0227700632e-03
  9.1213804314e-03
  9.2202487386e-03
  9.3193756597e-03
  9.4187618710e-03
  9.5184080509e-03
  9.6183148793e-03
  9.7184830381e-03
  9.8189132107e-03
  9.9196060826e-03
  1.0020562341e-02
  1.0121782675e-02
  1.0223267774e-02
  1.0325018333e-02
  1.0427035044e-02
  1.0529318605e-02
  1.0631869713e-02
  1.0734689068e-02
  1.0837777372e-02
  1.0941135328e-02
  1.1044763641e-02
  1.1148663019e-02
  1.1252834171e-02
  1.1357277808e-02
  1.1461994642e-02
  1.1566985389e-02
  1.1672250764e-02
  1.1777791485e-02
  1.1883608274e-02
  1.1989701852e-02
  1.2096072943e-02
  1.2202722274e-02
  1.2309650571e-02
  1.2416858565e-02
  1.2524346988e-02
  1.2632116572e-02
  1.2740168053e-02
  1.2848502169e-02
  1.2957119659e-02
  1.3066021264e-02
  1.3175207728e-02
  1.3284679795e-02
  1.3394438212e-02
  1.3504483729e-02
  1.3614817096e-02
  1.3725439067e-02
  1.3836350396e-02
  1.3947551841e-02
  1.4059044159e-02
  1.4170828113e-02
  1.4282904464e-02
  1.4395273978e-02
  1.4507937421e-02
  1.4620895563e-02
  1.4734149174e-02
  1.4847699027e-02
  1.4961545896e-02
  1.5075690560e-02
  1.5190133797e-02
  1.5304876387e-02
  1.5419919114e-02
  1.5535262763e-02
  1.5650908121e-02
  1.5766855977e-02
  1.5883107123e-02
  1.5999662352e-02
  1.6116522458e-02
  1.6233688241e-02
  1.6351160499e-02
  1.6468940033e-02
  1.6587027648e-02
  1.6705424150e-02
  1.6824130347e-02
  1.6943147048e-02
  1.7062475065e-02
  1.7182115214e-02
  1.7302068311e-02
  1.7422335173e-02
  1.7542916623e-02
  1.7663813482e-02
  1.7785026576e-02
  1.7906556732e-02
  1.8028404779e-02
  1.8150571550e-02
  1.8273057876e-02
  1.8395864595e-02
  1.8518992545e-02
  1.8642442565e-02
  1.8766215499e-02
  1.8890312191e-02
  1.9014733487e-02
  1.9139480237e-02
  1.9264553292e-02
  1.9389953505e-02
  1.9515681734e-02
  1.9641738834e-02
  1.9768125667e-02
  1.9894843096e-02
  2.0021891984e-02
  2.0149273199e-02
  2.0276987610e-02
  2.0405036089e-02
  2.0533419510e-02
  2.0662138748e-02
  2.0791194682e-02
  2.0920588194e-02
  2.1050320165e-02
  2.1180391481e-02
  2.1310803030e-02
  2.1441555701e-02
  2.1572650388e-02
  2.1704087985e-02
  2.1835869388e-02
  2.1967995497e-02
  2.2100467213e-02
  2.2233285441e-02
  2.2366451088e-02
  2.2499965060e-02
  2.2633828271e-02
  2.2768041633e-02
  2.2902606063e-02
  2.3037522478e-02
  2.3172791800e-02
  2.3308414950e-02
  2.3444392856e-02
  2.3580726445e-02
  2.3717416647e-02
  2.3854464395e-02
  2.3991870624e-02
  2.4129636273e-02
  2.4267762280e-02
  2.4406249590e-02
  2.4545099146e-02
  2.4684311896e-02
  2.4823888791e-02
  2.4963830783e-02
  2.5104138827e-02
  2.5244813880e-02
  2.5385856903e-02
  2.5527268857e-02
  2.5669050709e-02
  2.5811203425e-02
  2.5953727975e-02
  2.6096625333e-02
  2.6239896473e-02
  2.6383542374e-02
  2.6527564014e-02
  2.6671962378e-02
  2.6816738451e-02
  2.6961893220e-02
  2.7107427676e-02
  2.7253342813e-02
  2.7399639626e-02
  2.7546319113e-02
  2.7693382275e-02
  2.7840830117e-02
  2.7988663644e-02
  2.8136883865e-02
  2.8285491792e-02
  2.8434488439e-02
  2.8583874822e-02
  2.8733651961e-02
  2.8883820878e-02
  2.9034382598e-02
  2.9185338148e-02
  2.9336688559e-02
  2.9488434863e-02
  2.9640578097e-02
  2.9793119297e-02
  2.9946059506e-02
  3.0099399766e-02
  3.0253141125e-02
  3.0407284631e-02
  3.0561831337e-02
  3.0716782296e-02
  3.0872138568e-02
  3.1027901210e-02
  3.1184071288e-02
  3.1340649866e-02
  3.1497638012e-02
  3.1655036799e-02
  3.1812847301e-02
  3.1971070593e-02
  3.2129707757e-02
  3.2288759874e-02
  3.2448228031e-02
  3.2608113314e-02
  3.2768416816e-02
  3.2929139631e-02
  3.3090282854e-02
  3.3251847586e-02
  3.3413834930e-02
  3.3576245991e-02
  3.3739081876e-02
  3.3902343698e-02
  3.4066032571e-02
  3.4230149611e-02
  3.4394695939e-02
  3.4559672677e-02
  3.4725080952e-02
  3.4890921892e-02
  3.5057196628e-02
  3.5223906296e-02
  3.5391052033e-02
  3.5558634980e-02
  3.5726656281e-02
  3.5895117082e-02
  3.6064018532e-02
  3.6233361785e-02
  3.6403147995e-02
  3.6573378323e-02
  3.6744053928e-02
  3.6915175977e-02
  3.7086745637e-02
  3.7258764078e-02
  3.7431232475e-02
  3.7604152004e-02
  3.7777523846e-02
  3.7951349184e-02
  3.8125629203e-02
  3.8300365094e-02
  3.8475558049e-02
  3.8651209263e-02
  3.8827319935e-02
  3.9003891266e-02
  3.9180924463e-02
  3.9358420732e-02
  3.9536381286e-02
  3.9714807338e-02
  3.9893700106e-02
  4.0073060811e-02
  4.0252890678e-02
  4.0433190932e-02
  4.0613962805e-02
  4.0795207531e-02
  4.0976926346e-02
  4.1159120489e-02
  4.1341791206e-02
  4.1524939742e-02
  4.1708567346e-02
  4.1892675273e-02
  4.2077264778e-02
  4.2262337122e-02
  4.2447893566e-02
  4.2633935379e-02
  4.2820463828e-02
  4.3007480187e-02
  4.3194985733e-02
  4.3382981744e-02
  4.3571469504e-02
  4.3760450299e-02
  4.3949925419e-02
  4.4139896156e-02
  4.4330363808e-02
  4.4521329674e-02
  4.4712795056e-02
  4.4904761263e-02
  4.5097229603e-02
  4.5290201390e-02
  4.5483677942e-02
  4.5677660577e-02
  4.5872150621e-02
  4.6067149401e-02
  4.6262658247e-02
  4.6458678493e-02
  4.6655211477e-02
  4.6852258540e-02
  4.7049821028e-02
  4.7247900287e-02
  4.7446497671e-02
  4.7645614533e-02
  4.7845252234e-02
  4.8045412135e-02
  4.8246095602e-02
  4.8447304005e-02
  4.8649038717e-02
  4.8851301115e-02
  4.9054092579e-02
  4.9257414492e-02
  4.9461268243e-02
  4.9665655222e-02
  4.9870576825e-02
  5.0076034449e-02
  5.0282029497e-02
  5.0488563375e-02
  5.0695637491e-02
  5.0903253260e-02
  5.1111412098e-02
  5.1320115425e-02
  5.1529364666e-02
  5.1739161248e-02
  5.1949506604e-02
  5.2160402169e-02
  5.2371849382e-02
  5.2583849686e-02
  5.2796404527e-02
  5.3009515357e-02
  5.3223183629e-02
  5.3437410802e-02
  5.3652198338e-02
  5.3867547702e-02
  5.4083460365e-02
  5.4299937798e-02
  5.4516981481e-02
  5.4734592893e-02
  5.4952773520e-02
  5.5171524852e-02
  5.5390848379e-02
  5.5610745601e-02
  5.5831218016e-02
  5.6052267130e-02
  5.6273894451e-02
  5.6496101491e-02
  5.6718889768e-02
  5.6942260801e-02
  5.7166216114e-02
  5.7390757236e-02
  5.7615885700e-02
  5.7841603041e-02
  5.8067910800e-02
  5.8294810521e-02
  5.8522303754e-02
  5.8750392049e-02
  5.8979076964e-02
  5.9208360060e-02
  5.9438242900e-02
  5.9668727055e-02
  5.9899814096e-02
  6.0131505601e-02
  6.0363803150e-02
  6.0596708330e-02
  6.0830222729e-02
  6.1064347941e-02
  6.1299085564e-02
  6.1534437200e-02
  6.1770404454e-02
  6.2006988938e-02
  6.2244192265e-02
  6.2482016054e-02
  6.2720461929e-02
  6.2959531516e-02
  6.3199226447e-02
  6.3439548358e-02
  6.3680498888e-02
  6.3922079683e-02
  6.4164292390e-02
  6.4407138663e-02
  6.4650620158e-02
  6.4894738538e-02
  6.5139495468e-02
  6.5384892619e-02
  6.5630931665e-02
  6.5877614285e-02
  6.6124942163e-02
  6.6372916987e-02
  6.6621540448e-02
  6.6870814244e-02
  6.7120740075e-02
  6.7371319647e-02
  6.7622554670e-02
  6.7874446859e-02
  6.8126997932e-02
  6.8380209614e-02
  6.8634083631e-02
  6.8888621717e-02
  6.9143825609e-02
  6.9399697048e-02
  6.9656237780e-02
  6.9913449555e-02
  7.0171334130e-02
  7.0429893265e-02
  7.0689128722e-02
  7.0949042273e-02
  7.1209635689e-02
  7.1470910751e-02
  7.1732869240e-02
  7.1995512945e-02
  7.2258843657e-02
  7.2522863174e-02
  7.2787573297e-02
  7.3052975834e-02
  7.3319072594e-02
  7.3585865395e-02
  7.3853356056e-02
  7.4121546404e-02
  7.4390438268e-02
  7.4660033483e-02
  7.4930333889e-02
  7.5201341331e-02
  7.5473057658e-02
  7.5745484724e-02
  7.6018624389e-02
  7.6292478516e-02
  7.6567048974e-02
  7.6842337638e-02
  7.7118346385e-02
  7.7395077099e-02
  7.7672531669e-02
  7.7950711989e-02
  7.8229619955e-02
  7.8509257473e-02
  7.8789626449e-02
  7.9070728798e-02
  7.9352566438e-02
  7.9635141292e-02
  7.9918455289e-02
  8.0202510361e-02
  8.0487308447e-02
  8.0772851492e-02
  8.1059141442e-02
  8.1346180253e-02
  8.1633969883e-02
  8.1922512296e-02
  8.2211809461e-02
  8.2501863353e-02
  8.2792675949e-02
  8.3084249237e-02
  8.3376585204e-02
  8.3669685846e-02
  8.3963553163e-02
  8.4258189161e-02
  8.4553595850e-02
  8.4849775247e-02
  8.5146729371e-02
  8.5444460251e-02
  8.5742969917e-02
  8.6042260408e-02
  8.6342333764e-02
  8.6643192034e-02
  8.6944837272e-02
  8.7247271535e-02
  8.7550496887e-02
  8.7854515398e-02
  8.8159329143e-02
  8.8464940202e-02
  8.8771350659e-02
  8.9078562607e-02
  8.9386578142e-02
  8.9695399365e-02
  9.0005028384e-02
  9.0315467312e-02
  9.0626718268e-02
  9.0938783376e-02
  9.1251664765e-02
  9.1565364571e-02
  9.1879884933e-02
  9.2195228000e-02
  9.2511395921e-02
  9.2828390856e-02
  9.3146214968e-02
  9.3464870425e-02
  9.3784359402e-02
  9.4104684079e-02
  9.4425846642e-02
  9.4747849283e-02
  9.5070694199e-02
  9.5394383594e-02
  9.5718919676e-02
  9.6044304661e-02
  9.6370540768e-02
  9.6697630224e-02
  9.7025575261e-02
  9.7354378117e-02
  9.7684041036e-02
  9.8014566267e-02
  9.8345956067e-02
  9.8678212696e-02
  9.9011338423e-02
  9.9345335520e-02
  9.9680206266e-02
  1.0001595295e-01
  1.0035257786e-01
  1.0069008329e-01
  1.0102847154e-01
  1.0136774494e-01
  1.0170790578e-01
  1.0204895640e-01
  1.0239089912e-01
  1.0273373627e-01
  1.0307747019e-01
  1.0342210323e-01
  1.0376763774e-01
  1.0411407608e-01
  1.0446142062e-01
  1.0480967371e-01
  1.0515883775e-01
  1.0550891511e-01
  1.0585990818e-01
  1.0621181936e-01
  1.0656465104e-01
  1.0691840564e-01
  1.0727308558e-01
  1.0762869326e-01
  1.0798523112e-01
  1.0834270159e-01
  1.0870110711e-01
  1.0906045012e-01
  1.0942073309e-01
  1.0978195846e-01
  1.1014412870e-01
  1.1050724629e-01
  1.1087131369e-01
  1.1123633341e-01
  1.1160230791e-01
  1.1196923972e-01
  1.1233713132e-01
  1.1270598523e-01
  1.1307580397e-01
  1.1344659006e-01
  1.1381834602e-01
  1.1419107441e-01
  1.1456477775e-01
  1.1493945861e-01
  1.1531511953e-01
  1.1569176309e-01
  1.1606939184e-01
  1.1644800838e-01
  1.1682761528e-01
  1.1720821513e-01
  1.1758981053e-01
  1.1797240408e-01
  1.1835599841e-01
  1.1874059611e-01
  1.1912619982e-01
  1.1951281217e-01
  1.1990043580e-01
  1.2028907335e-01
  1.2067872748e-01
  1.2106940084e-01
  1.2146109610e-01
  1.2185381594e-01
  1.2224756302e-01
  1.2264234005e-01
  1.2303814971e-01
  1.2343499471e-01
  1.2383287775e-01
  1.2423180155e-01
  1.2463176883e-01
  1.2503278232e-01
  1.2543484475e-01
  1.2583795888e-01
  1.2624212745e-01
  1.2664735322e-01
  1.2705363896e-01
  1.2746098743e-01
  1.2786940142e-01
  1.2827888372e-01
  1.2868943712e-01
  1.2910106441e-01
  1.2951376842e-01
  1.2992755195e-01
  1.3034241784e-01
  1.3075836890e-01
  1.3117540799e-01
  1.3159353794e-01
  1.3201276161e-01
  1.3243308186e-01
  1.3285450156e-01
  1.3327702359e-01
  1.3370065082e-01
  1.3412538615e-01
  1.3455123248e-01
  1.3497819271e-01
  1.3540626976e-01
  1.3583546654e-01
  1.3626578600e-01
  1.3669723106e-01
  1.3712980466e-01
  1.3756350977e-01
  1.3799834934e-01
  1.3843432633e-01
  1.3887144373e-01
  1.3930970451e-01
  1.3974911167e-01
  1.4018966820e-01
  1.4063137712e-01
  1.4107424143e-01
  1.4151826416e-01
  1.4196344834e-01
  1.4240979700e-01
  1.4285731320e-01
  1.4330599998e-01
  1.4375586041e-01
  1.4420689756e-01
  1.4465911450e-01
  1.4511251433e-01
  1.4556710013e-01
  1.4602287501e-01
  1.4647984208e-01
  1.4693800446e-01
  1.4739736527e-01
  1.4785792765e-01
  1.4831969474e-01
  1.4878266969e-01
  1.4924685567e-01
  1.4971225584e-01
  1.5017887337e-01
  1.5064671145e-01
  1.5111577328e-01
  1.5158606204e-01
  1.5205758097e-01
  1.5253033326e-01
  1.5300432215e-01
  1.5347955087e-01
  1.5395602267e-01
  1.5443374080e-01
  1.5491270851e-01
  1.5539292907e-01
  1.5587440577e-01
  1.5635714189e-01
  1.5684114072e-01
  1.5732640556e-01
  1.5781293973e-01
  1.5830074655e-01
  1.5878982934e-01
  1.5928019145e-01
  1.5977183622e-01
  1.6026476700e-01
  1.6075898716e-01
  1.6125450007e-01
  1.6175130912e-01
  1.6224941769e-01
  1.6274882918e-01
  1.6324954700e-01
  1.6375157457e-01
  1.6425491532e-01
  1.6475957267e-01
  1.6526555008e-01
  1.6577285099e-01
  1.6628147887e-01
  1.6679143719e-01
  1.6730272942e-01
  1.6781535906e-01
  1.6832932961e-01
  1.6884464458e-01
  1.6936130747e-01
  1.6987932182e-01
  1.7039869116e-01
  1.7091941904e-01
  1.7144150900e-01
  1.7196496462e-01
  1.7248978946e-01
  1.7301598710e-01
  1.7354356114e-01
  1.7407251518e-01
  1.7460285283e-01
  1.7513457770e-01
  1.7566769342e-01
  1.7620220364e-01
  1.7673811200e-01
  1.7727542215e-01
  1.7781413777e-01
  1.7835426253e-01
  1.7889580011e-01
  1.7943875422e-01
  1.7998312855e-01
  1.8052892683e-01
  1.8107615277e-01
  1.8162481011e-01
  1.8217490260e-01
  1.8272643399e-01
  1.8327940804e-01
  1.8383382852e-01
  1.8438969923e-01
  1.8494702395e-01
  1.8550580649e-01
  1.8606605065e-01
  1.8662776027e-01
  1.8719093918e-01
  1.8775559122e-01
  1.8832172023e-01
  1.8888933010e-01
  1.8945842469e-01
  1.9002900788e-01
  1.9060108356e-01
  1.9117465565e-01
  1.9174972805e-01
  1.9232630470e-01
  1.9290438952e-01
  1.9348398646e-01
  1.9406509947e-01
  1.9464773252e-01
  1.9523188960e-01
  1.9581757467e-01
  1.9640479175e-01
  1.9699354483e-01
  1.9758383793e-01
  1.9817567510e-01
  1.9876906035e-01
  1.9936399774e-01
  1.9996049134e-01
  2.0055854521e-01
  2.0115816343e-01
  2.0175935010e-01
  2.0236210932e-01
  2.0296644519e-01
  2.0357236186e-01
  2.0417986344e-01
  2.0478895409e-01
  2.0539963797e-01
  2.0601191923e-01
  2.0662580206e-01
  2.0724129065e-01
  2.0785838920e-01
  2.0847710192e-01
  2.0909743303e-01
  2.0971938677e-01
  2.1034296737e-01
  2.1096817911e-01
  2.1159502623e-01
  2.1222351302e-01
  2.1285364377e-01
  2.1348542278e-01
  2.1411885435e-01
  2.1475394282e-01
  2.1539069252e-01
  2.1602910779e-01
  2.1666919299e-01
  2.1731095248e-01
  2.1795439065e-01
  2.1859951189e-01
  2.1924632059e-01
  2.1989482118e-01
  2.2054501808e-01
  2.2119691573e-01
  2.2185051857e-01
  2.2250583107e-01
  2.2316285769e-01
  2.2382160293e-01
  2.2448207127e-01
  2.2514426722e-01
  2.2580819531e-01
  2.2647386006e-01
  2.2714126602e-01
  2.2781041774e-01
  2.2848131978e-01
  2.2915397673e-01
  2.2982839318e-01
  2.3050457372e-01
  2.3118252298e-01
  2.3186224558e-01
  2.3254374615e-01
  2.3322702935e-01
  2.3391209985e-01
  2.3459896231e-01
  2.3528762142e-01
  2.3597808189e-01
  2.3667034843e-01
  2.3736442575e-01
  2.3806031860e-01
  2.3875803172e-01
  2.3945756988e-01
  2.4015893785e-01
  2.4086214042e-01
