ocio/luts/SLog3_to_lin.spi1d
Version 1
From 0.0000000000 1.0000000000
Length 4096
Components 1
{
  -1.4023695936e-02
  -1.3986818510e-02
  -1.3949941083e-02
  -1.3913063656e-02
  -1.3876186229e-02
  -1.3839308803e-02
  -1.3802431376e-02
  -1.3765553949e-02
  -1.3728676522e-02
  -1.3691799096e-02
  -1.3654921669e-02
  -1.3618044242e-02
  -1.3581166815e-02
  -1.3544289389e-02
  -1.3507411962e-02
  -1.3470534535e-02
  -1.3433657108e-02
  -1.3396779682e-02
  -1.3359902255e-02
  -1.3323024828e-02
  -1.3286147401e-02
  -1.3249269975e-02
  -1.3212392548e-02
  -1.3175515121e-02
  -1.3138637694e-02
  -1.3101760268e-02
  -1.3064882841e-02
  -1.3028005414e-02
  -1.2991127987e-02
  -1.2954250561e-02
  -1.2917373134e-02
  -1.2880495707e-02
  -1.2843618280e-02
  -1.2806740854e-02
  -1.2769863427e-02
  -1.2732986000e-02
  -1.2696108573e-02
  -1.2659231147e-02
  -1.2622353720e-02
  -1.2585476293e-02
  -1.2548598866e-02
  -1.2511721440e-02
  -1.2474844013e-02
  -1.2437966586e-02
  -1.2401089159e-02
  -1.2364211733e-02
  -1.2327334306e-02
  -1.2290456879e-02
  -1.2253579452e-02
  -1.2216702025e-02
  -1.2179824599e-02
  -1.2142947172e-02
  -1.2106069745e-02
  -1.2069192318e-02
  -1.2032314892e-02
  -1.1995437465e-02
  -1.1958560038e-02
  -1.1921682611e-02
  -1.1884805185e-02
  -1.1847927758e-02
  -1.1811050331e-02
  -1.1774172904e-02
  -1.1737295478e-02
  -1.1700418051e-02
  -1.1663540624e-02
  -1.1626663197e-02
  -1.1589785771e-02
  -1.1552908344e-02
  -1.1516030917e-02
  -1.1479153490e-02
  -1.1442276064e-02
  -1.1405398637e-02
  -1.1368521210e-02
  -1.1331643783e-02
  -1.1294766357e-02
  -1.1257888930e-02
  -1.1221011503e-02
  -1.1184134076e-02
  -1.1147256650e-02
  -1.1110379223e-02
  -1.1073501796e-02
  -1.1036624369e-02
  -1.0999746943e-02
  -1.0962869516e-02
  -1.0925992089e-02
  -1.0889114662e-02
  -1.0852237236e-02
  -1.0815359809e-02
  -1.0778482382e-02
  -1.0741604955e-02
  -1.0704727529e-02
  -1.0667850102e-02
  -1.0630972675e-02
  -1.0594095248e-02
  -1.0557217822e-02
  -1.0520340395e-02
  -1.0483462968e-02
  -1.0446585541e-02
  -1.0409708115e-02
  -1.0372830688e-02
  -1.0335953261e-02
  -1.0299075834e-02
  -1.0262198408e-02
  -1.0225320981e-02
  -1.0188443554e-02
  -1.0151566127e-02
  -1.0114688701e-02
  -1.0077811274e-02
  -1.0040933847e-02
  -1.0004056420e-02
  -9.9671789935e-03
  -9.9303015667e-03
  -9.8934241400e-03
  -9.8565467132e-03
  -9.8196692865e-03
  -9.7827918597e-03
  -9.7459144330e-03
  -9.7090370062e-03
  -9.6721595795e-03
  -9.6352821527e-03
  -9.5984047260e-03
  -9.5615272992e-03
  -9.5246498725e-03
  -9.4877724457e-03
  -9.4508950189e-03
  -9.4140175922e-03
  -9.3771401654e-03
  -9.3402627387e-03
  -9.3033853119e-03
  -9.2665078852e-03
  -9.2296304584e-03
  -9.1927530317e-03
  -9.1558756049e-03
  -9.1189981782e-03
  -9.0821207514e-03
  -9.0452433247e-03
  -9.0083658979e-03
  -8.9714884711e-03
  -8.9346110444e-03
  -8.8977336176e-03
  -8.8608561909e-03
  -8.8239787641e-03
  -8.7871013374e-03
  -8.7502239106e-03
  -8.7133464839e-03
  -8.6764690571e-03
  -8.6395916304e-03
  -8.6027142036e-03
  -8.5658367768e-03
  -8.5289593501e-03
  -8.4920819233e-03
  -8.4552044966e-03
  -8.4183270698e-03
  -8.3814496431e-03
  -8.3445722163e-03
  -8.3076947896e-03
  -8.2708173628e-03
  -8.2339399361e-03
  -8.1970625093e-03
  -8.1601850826e-03
  -8.1233076558e-03
  -8.0864302290e-03
  -8.0495528023e-03
  -8.0126753755e-03
  -7.9757979488e-03
  -7.9389205220e-03
  -7.9020430953e-03
  -7.8651656685e-03
  -7.8282882418e-03
  -7.7914108150e-03
  -7.7545333883e-03
  -7.7176559615e-03
  -7.6807785348e-03
  -7.6439011080e-03
  -7.6070236812e-03
  -7.5701462545e-03
  -7.5332688277e-03
  -7.4963914010e-03
  -7.4595139742e-03
  -7.4226365475e-03
  -7.3857591207e-03
  -7.3488816940e-03
  -7.3120042672e-03
  -7.2751268405e-03
  -7.2382494137e-03
  -7.2013719870e-03
  -7.1644945602e-03
  -7.1276171334e-03
  -7.0907397067e-03
  -7.0538622799e-03
  -7.0169848532e-03
  -6.9801074264e-03
  -6.9432299997e-03
  -6.9063525729e-03
  -6.8694751462e-03
  -6.8325977194e-03
  -6.7957202927e-03
  -6.7588428659e-03
  -6.7219654391e-03
  -6.6850880124e-03
  -6.6482105856e-03
  -6.6113331589e-03
  -6.5744557321e-03
  -6.5375783054e-03
  -6.5007008786e-03
  -6.4638234519e-03
  -6.4269460251e-03
  -6.3900685984e-03
  -6.3531911716e-03
  -6.3163137449e-03
  -6.2794363181e-03
  -6.2425588913e-03
  -6.2056814646e-03
  -6.1688040378e-03
  -6.1319266111e-03
  -6.0950491843e-03
  -6.0581717576e-03
  -6.0212943308e-03
  -5.9844169041e-03
  -5.9475394773e-03
  -5.9106620506e-03
  -5.8737846238e-03
  -5.8369071971e-03
  -5.8000297703e-03
  -5.7631523435e-03
  -5.7262749168e-03
  -5.6893974900e-03
  -5.6525200633e-03
  -5.6156426365e-03
  -5.5787652098e-03
  -5.5418877830e-03
  -5.5050103563e-03
  -5.4681329295e-03
  -5.4312555028e-03
  -5.3943780760e-03
  -5.3575006492e-03
  -5.3206232225e-03
  -5.2837457957e-03
  -5.2468683690e-03
  -5.2099909422e-03
  -5.1731135155e-03
  -5.1362360887e-03
  -5.0993586620e-03
  -5.0624812352e-03
  -5.0256038085e-03
  -4.9887263817e-03
  -4.9518489550e-03
  -4.9149715282e-03
  -4.8780941014e-03
  -4.8412166747e-03
  -4.8043392479e-03
  -4.7674618212e-03
  -4.7305843944e-03
  -4.6937069677e-03
  -4.6568295409e-03
  -4.6199521142e-03
  -4.5830746874e-03
  -4.5461972607e-03
  -4.5093198339e-03
  -4.4724424072e-03
  -4.4355649804e-03
  -4.3986875536e-03
  -4.3618101269e-03
  -4.3249327001e-03
  -4.2880552734e-03
  -4.2511778466e-03
  -4.2143004199e-03
  -4.1774229931e-03
  -4.1405455664e-03
  -4.1036681396e-03
  -4.0667907129e-03
  -4.0299132861e-03
  -3.9930358594e-03
  -3.9561584326e-03
  -3.9192810058e-03
  -3.8824035791e-03
  -3.8455261523e-03
  -3.8086487256e-03
  -3.7717712988e-03
  -3.7348938721e-03
  -3.6980164453e-03
  -3.6611390186e-03
  -3.6242615918e-03
  -3.5873841651e-03
  -3.5505067383e-03
  -3.5136293115e-03
  -3.4767518848e-03
  -3.4398744580e-03
  -3.4029970313e-03
  -3.3661196045e-03
  -3.3292421778e-03
  -3.2923647510e-03
  -3.2554873243e-03
  -3.2186098975e-03
  -3.1817324708e-03
  -3.1448550440e-03
  -3.1079776173e-03
  -3.0711001905e-03
  -3.0342227637e-03
  -2.9973453370e-03
  -2.9604679102e-03
  -2.9235904835e-03
  -2.8867130567e-03
  -2.8498356300e-03
  -2.8129582032e-03
  -2.7760807765e-03
  -2.7392033497e-03
  -2.7023259230e-03
  -2.6654484962e-03
  -2.6285710695e-03
  -2.5916936427e-03
  -2.5548162159e-03
  -2.5179387892e-03
  -2.4810613624e-03
  -2.4441839357e-03
  -2.4073065089e-03
  -2.3704290822e-03
  -2.3335516554e-03
  -2.2966742287e-03
  -2.2597968019e-03
  -2.2229193752e-03
  -2.1860419484e-03
  -2.1491645216e-03
  -2.1122870949e-03
  -2.0754096681e-03
  -2.0385322414e-03
  -2.0016548146e-03
  -1.9647773879e-03
  -1.9278999611e-03
  -1.8910225344e-03
  -1.8541451076e-03
  -1.8172676809e-03
  -1.7803902541e-03
  -1.7435128274e-03
  -1.7066354006e-03
  -1.6697579738e-03
  -1.6328805471e-03
  -1.5960031203e-03
  -1.5591256936e-03
  -1.5222482668e-03
  -1.4853708401e-03
  -1.4484934133e-03
  -1.4116159866e-03
  -1.3747385598e-03
  -1.3378611331e-03
  -1.3009837063e-03
  -1.2641062796e-03
  -1.2272288528e-03
  -1.1903514260e-03
  -1.1534739993e-03
  -1.1165965725e-03
  -1.0797191458e-03
  -1.0428417190e-03
  -1.0059642923e-03
  -9.6908686552e-04
  -9.3220943877e-04
  -8.9533201201e-04
  -8.5845458526e-04
  -8.2157715851e-04
  -7.8469973175e-04
  -7.4782230500e-04
  -7.1094487824e-04
  -6.7406745149e-04
  -6.3719002474e-04
  -6.0031259798e-04
  -5.6343517123e-04
  -5.2655774447e-04
  -4.8968031772e-04
  -4.5280289097e-04
  -4.1592546421e-04
  -3.7904803746e-04
  -3.4217061070e-04
  -3.0529318395e-04
  -2.6841575719e-04
  -2.3153833044e-04
  -1.9466090369e-04
  -1.5778347693e-04
  -1.2090605018e-04
  -8.4028623425e-05
  -4.7151196671e-05
  -1.0273769917e-05
  2.6603656837e-05
  6.3481083591e-05
  1.0035851035e-04
  1.3723593710e-04
  1.7411336385e-04
  2.1099079061e-04
  2.4786821736e-04
  2.8474564412e-04
  3.2162307087e-04
  3.5850049762e-04
  3.9537792438e-04
  4.3225535113e-04
  4.6913277789e-04
  5.0601020464e-04
  5.4288763139e-04
  5.7976505815e-04
  6.1664248490e-04
  6.5351991166e-04
  6.9039733841e-04
  7.2727476516e-04
  7.6415219192e-04
  8.0102961867e-04
  8.3790704543e-04
  8.7478447218e-04
  9.1166189893e-04
  9.4853932569e-04
  9.8541675244e-04
  1.0222941792e-03
  1.0591716059e-03
  1.0960490327e-03
  1.1329264595e-03
  1.1698038862e-03
  1.2066813130e-03
  1.2435587397e-03
  1.2804361665e-03
  1.3173135932e-03
  1.3541910200e-03
  1.3910684467e-03
  1.4279458735e-03
  1.4648233002e-03
  1.5017007270e-03
  1.5385781538e-03
  1.5754555805e-03
  1.6123330073e-03
  1.6492104340e-03
  1.6860878608e-03
  1.7229652875e-03
  1.7598427143e-03
  1.7967201410e-03
  1.8335975678e-03
  1.8704749945e-03
  1.9073524213e-03
  1.9442298480e-03
  1.9811072748e-03
  2.0179847016e-03
  2.0548621283e-03
  2.0917395551e-03
  2.1286169818e-03
  2.1654944086e-03
  2.2023718353e-03
  2.2392492621e-03
  2.2761266888e-03
  2.3130041156e-03
  2.3498815423e-03
  2.3867589691e-03
  2.4236363958e-03
  2.4605138226e-03
  2.4973912494e-03
  2.5342686761e-03
  2.5711461029e-03
  2.6080235296e-03
  2.6449009564e-03
  2.6817783831e-03
  2.7186558099e-03
  2.7555332366e-03
  2.7924106634e-03
  2.8292880901e-03
  2.8661655169e-03
  2.9030429437e-03
  2.9399203704e-03
  2.9767977972e-03
  3.0136752239e-03
  3.0505526507e-03
  3.0874300774e-03
  3.1243075042e-03
  3.1611849309e-03
  3.1980623577e-03
  3.2349397844e-03
  3.2718172112e-03
  3.3086946379e-03
  3.3455720647e-03
  3.3824494915e-03
  3.4193269182e-03
  3.4562043450e-03
  3.4930817717e-03
  3.5299591985e-03
  3.5668366252e-03
  3.6037140520e-03
  3.6405914787e-03
  3.6774689055e-03
  3.7143463322e-03
  3.7512237590e-03
  3.7881011857e-03
  3.8249786125e-03
  3.8618560393e-03
  3.8987334660e-03
  3.9356108928e-03
  3.9724883195e-03
  4.0093657463e-03
  4.0462431730e-03
  4.0831205998e-03
  4.1199980265e-03
  4.1568754533e-03
  4.1937528800e-03
  4.2306303068e-03
  4.2675077335e-03
  4.3043851603e-03
  4.3412625871e-03
  4.3781400138e-03
  4.4150174406e-03
  4.4518948673e-03
  4.4887722941e-03
  4.5256497208e-03
  4.5625271476e-03
  4.5994045743e-03
  4.6362820011e-03
  4.6731594278e-03
  4.7100368546e-03
  4.7469142814e-03
  4.7837917081e-03
  4.8206691349e-03
  4.8575465616e-03
  4.8944239884e-03
  4.9313014151e-03
  4.9681788419e-03
  5.0050562686e-03
  5.0419336954e-03
  5.0788111221e-03
  5.1156885489e-03
  5.1525659756e-03
  5.1894434024e-03
  5.2263208292e-03
  5.2631982559e-03
  5.3000756827e-03
  5.3369531094e-03
  5.3738305362e-03
  5.4107079629e-03
  5.4475853897e-03
  5.4844628164e-03
  5.5213402432e-03
  5.5582176699e-03
  5.5950950967e-03
  5.6319725234e-03
  5.6688499502e-03
  5.7057273770e-03
  5.7426048037e-03
  5.7794822305e-03
  5.8163596572e-03
  5.8532370840e-03
  5.8901145107e-03
  5.9269919375e-03
  5.9638693642e-03
  6.0007467910e-03
  6.0376242177e-03
  6.0745016445e-03
  6.1113790713e-03
  6.1482564980e-03
  6.1851339248e-03
  6.2220113515e-03
  6.2588887783e-03
  6.2957662050e-03
  6.3326436318e-03
  6.3695210585e-03
  6.4063984853e-03
  6.4432759120e-03
  6.4801533388e-03
  6.5170307655e-03
  6.5539081923e-03
  6.5907856191e-03
  6.6276630458e-03
  6.6645404726e-03
  6.7014178993e-03
  6.7382953261e-03
  6.7751727528e-03
  6.8120501796e-03
  6.8489276063e-03
  6.8858050331e-03
  6.9226824598e-03
  6.9595598866e-03
  6.9964373133e-03
  7.0333147401e-03
  7.0701921669e-03
  7.1070695936e-03
  7.1439470204e-03
  7.1808244471e-03
  7.2177018739e-03
  7.2545793006e-03
  7.2914567274e-03
  7.3283341541e-03
  7.3652115809e-03
  7.4020890076e-03
  7.4389664344e-03
  7.4758438611e-03
  7.5127212879e-03
  7.5495987147e-03
  7.5864761414e-03
  7.6233535682e-03
  7.6602309949e-03
  7.6971084217e-03
  7.7339858484e-03
  7.7708632752e-03
  7.8077407019e-03
  7.8446181287e-03
  7.8814955554e-03
  7.9183729822e-03
  7.9552504090e-03
  7.9921278357e-03
  8.0290052625e-03
  8.0658826892e-03
  8.1027601160e-03
  8.1396375427e-03
  8.1765149695e-03
  8.2133923962e-03
  8.2502698230e-03
  8.2871472497e-03
  8.3240246765e-03
  8.3609021032e-03
  8.3977795300e-03
  8.4346569568e-03
  8.4715343835e-03
  8.5084118103e-03
  8.5452892370e-03
  8.5821666638e-03
  8.6190440905e-03
  8.6559215173e-03
  8.6927989440e-03
  8.7296763708e-03
  8.7665537975e-03
  8.8034312243e-03
  8.8403086510e-03
  8.8771860778e-03
  8.9140635046e-03
  8.9509409313e-03
  8.9878183581e-03
  9.0246957848e-03
  9.0615732116e-03
  9.0984506383e-03
  9.1353280651e-03
  9.1722054918e-03
  9.2090829186e-03
  9.2459603453e-03
  9.2828377721e-03
  9.3197151988e-03
  9.3565926256e-03
  9.3934700524e-03
  9.4303474791e-03
  9.4672249059e-03
  9.5041023326e-03
  9.5409797594e-03
  9.5778571861e-03
  9.6147346129e-03
  9.6516120396e-03
  9.6884894664e-03
  9.7253668931e-03
  9.7622443199e-03
  9.7991217467e-03
  9.8359991734e-03
  9.8728766002e-03
  9.9097540269e-03
  9.9466314537e-03
  9.9835088804e-03
  1.0020386307e-02
  1.0057263734e-02
  1.0094141161e-02
  1.0131018587e-02
  1.0167896014e-02
  1.0204773441e-02
  1.0241650868e-02
  1.0278528294e-02
  1.0315405721e-02
  1.0352283148e-02
  1.0389160575e-02
  1.0426038001e-02
  1.0462915428e-02
  1.0499792855e-02
  1.0536670282e-02
  1.0573547708e-02
  1.0610425135e-02
  1.0647302562e-02
  1.0684179989e-02
  1.0721057416e-02
  1.0757934842e-02
  1.0794812269e-02
  1.0831689696e-02
  1.0868567123e-02
  1.0905444549e-02
  1.0942321976e-02
  1.0979199403e-02
  1.1016076830e-02
  1.1052954256e-02
  1.1089831683e-02
  1.1126709110e-02
  1.1163586537e-02
  1.1200463963e-02
  1.1237341390e-02
  1.1280720672e-02
  1.1327583641e-02
  1.1374549809e-02
  1.1421619402e-02
  1.1468792650e-02
  1.1516069778e-02
  1.1563451018e-02
  1.1610936597e-02
  1.1658526745e-02
  1.1706221694e-02
  1.1754021673e-02
  1.1801926914e-02
  1.1849937648e-02
  1.1898054109e-02
  1.1946276529e-02
  1.1994605140e-02
  1.2043040178e-02
  1.2091581876e-02
  1.2140230469e-02
  1.2188986193e-02
  1.2237849284e-02
  1.2286819977e-02
  1.2335898511e-02
  1.2385085121e-02
  1.2434380048e-02
  1.2483783528e-02
  1.2533295801e-02
  1.2582917107e-02
  1.2632647686e-02
  1.2682487778e-02
  1.2732437624e-02
  1.2782497467e-02
  1.2832667548e-02
  1.2882948110e-02
  1.2933339397e-02
  1.2983841652e-02
  1.3034455120e-02
  1.3085180045e-02
  1.3136016673e-02
  1.3186965250e-02
  1.3238026023e-02
  1.3289199238e-02
  1.3340485144e-02
  1.3391883988e-02
  1.3443396019e-02
  1.3495021486e-02
  1.3546760640e-02
  1.3598613730e-02
  1.3650581007e-02
  1.3702662723e-02
  1.3754859130e-02
  1.3807170480e-02
  1.3859597027e-02
  1.3912139024e-02
  1.3964796726e-02
  1.4017570387e-02
  1.4070460262e-02
  1.4123466608e-02
  1.4176589681e-02
  1.4229829738e-02
  1.4283187037e-02
  1.4336661835e-02
  1.4390254392e-02
  1.4443964967e-02
  1.4497793820e-02
  1.4551741211e-02
  1.4605807402e-02
  1.4659992653e-02
  1.4714297228e-02
  1.4768721388e-02
  1.4823265398e-02
  1.4877929520e-02
  1.4932714021e-02
  1.4987619164e-02
  1.5042645215e-02
  1.5097792441e-02
  1.5153061109e-02
  1.5208451486e-02
  1.5263963839e-02
  1.5319598438e-02
  1.5375355552e-02
  1.5431235451e-02
  1.5487238404e-02
  1.5543364683e-02
  1.5599614560e-02
  1.5655988307e-02
  1.5712486196e-02
  1.5769108500e-02
  1.5825855495e-02
  1.5882727454e-02
  1.5939724653e-02
  1.5996847367e-02
  1.6054095873e-02
  1.6111470447e-02
  1.6168971368e-02
  1.6226598914e-02
  1.6284353363e-02
  1.6342234996e-02
  1.6400244091e-02
  1.6458380930e-02
  1.6516645794e-02
  1.6575038965e-02
  1.6633560725e-02
  1.6692211358e-02
  1.6750991148e-02
  1.6809900378e-02
  1.6868939335e-02
  1.6928108303e-02
  1.6987407568e-02
  1.7046837419e-02
  1.7106398142e-02
  1.7166090026e-02
  1.7225913360e-02
  1.7285868432e-02
  1.7345955533e-02
  1.7406174954e-02
  1.7466526986e-02
  1.7527011921e-02
  1.7587630052e-02
  1.7648381673e-02
  1.7709267076e-02
  1.7770286557e-02
  1.7831440411e-02
  1.7892728934e-02
  1.7954152423e-02
  1.8015711174e-02
  1.8077405486e-02
  1.8139235657e-02
  1.8201201986e-02
  1.8263304773e-02
  1.8325544318e-02
  1.8387920924e-02
  1.8450434891e-02
  1.8513086522e-02
  1.8575876120e-02
  1.8638803989e-02
  1.8701870434e-02
  1.8765075759e-02
  1.8828420271e-02
  1.8891904276e-02
  1.8955528081e-02
  1.9019291994e-02
  1.9083196324e-02
  1.9147241380e-02
  1.9211427471e-02
  1.9275754909e-02
  1.9340224004e-02
  1.9404835068e-02
  1.9469588415e-02
  1.9534484357e-02
  1.9599523209e-02
  1.9664705285e-02
  1.9730030900e-02
  1.9795500371e-02
  1.9861114015e-02
  1.9926872149e-02
  1.9992775090e-02
  2.0058823159e-02
  2.0125016674e-02
  2.0191355956e-02
  2.0257841326e-02
  2.0324473106e-02
  2.0391251618e-02
  2.0458177185e-02
  2.0525250130e-02
  2.0592470780e-02
  2.0659839458e-02
  2.0727356491e-02
  2.0795022205e-02
  2.0862836928e-02
  2.0930800988e-02
  2.0998914715e-02
  2.1067178436e-02
  2.1135592483e-02
  2.1204157188e-02
  2.1272872880e-02
  2.1341739894e-02
  2.1410758562e-02
  2.1479929219e-02
  2.1549252198e-02
  2.1618727836e-02
  2.1688356468e-02
  2.1758138432e-02
  2.1828074064e-02
  2.1898163705e-02
  2.1968407692e-02
  2.2038806366e-02
  2.2109360067e-02
  2.2180069136e-02
  2.2250933916e-02
  2.2321954750e-02
  2.2393131981e-02
  2.2464465954e-02
  2.2535957014e-02
  2.2607605507e-02
  2.2679411779e-02
  2.2751376178e-02
  2.2823499052e-02
  2.2895780750e-02
  2.2968221622e-02
  2.3040822019e-02
  2.3113582291e-02
  2.3186502791e-02
  2.3259583872e-02
  2.3332825887e-02
  2.3406229190e-02
  2.3479794137e-02
  2.3553521085e-02
  2.3627410388e-02
  2.3701462406e-02
  2.3775677496e-02
  2.3850056017e-02
  2.3924598330e-02
  2.3999304795e-02
  2.4074175773e-02
  2.4149211628e-02
  2.4224412721e-02
  2.4299779417e-02
  2.4375312080e-02
  2.4451011077e-02
  2.4526876772e-02
  2.4602909534e-02
  2.4679109730e-02
  2.4755477730e-02
  2.4832013901e-02
  2.4908718615e-02
  2.4985592244e-02
  2.5062635158e-02
  2.5139847731e-02
  2.5217230336e-02
  2.5294783348e-02
  2.5372507142e-02
  2.5450402094e-02
  2.5528468582e-02
  2.5606706982e-02
  2.5685117673e-02
  2.5763701035e-02
  2.5842457448e-02
  2.5921387293e-02
  2.6000490952e-02
  2.6079768808e-02
  2.6159221244e-02
  2.6238848645e-02
  2.6318651396e-02
  2.6398629883e-02
  2.6478784494e-02
  2.6559115615e-02
  2.6639623637e-02
  2.6720308947e-02
  2.6801171938e-02
  2.6882212999e-02
  2.6963432524e-02
  2.7044830905e-02
  2.7126408536e-02
  2.7208165811e-02
  2.7290103127e-02
  2.7372220880e-02
  2.7454519467e-02
  2.7536999287e-02
  2.7619660738e-02
  2.7702504220e-02
  2.7785530135e-02
  2.7868738884e-02
  2.7952130869e-02
  2.8035706495e-02
  2.8119466165e-02
  2.8203410286e-02
  2.8287539262e-02
  2.8371853501e-02
  2.8456353412e-02
  2.8541039403e-02
  2.8625911883e-02
  2.8710971264e-02
  2.8796217957e-02
  2.8881652374e-02
  2.8967274930e-02
  2.9053086037e-02
  2.9139086112e-02
  2.9225275571e-02
  2.9311654830e-02
  2.9398224308e-02
  2.9484984423e-02
  2.9571935596e-02
  2.9659078246e-02
  2.9746412797e-02
  2.9833939669e-02
  2.9921659287e-02
  3.0009572076e-02
  3.0097678460e-02
  3.0185978866e-02
  3.0274473722e-02
  3.0363163454e-02
  3.0452048494e-02
  3.0541129269e-02
  3.0630406213e-02
  3.0719879756e-02
  3.0809550332e-02
  3.0899418375e-02
  3.0989484318e-02
  3.1079748599e-02
  3.1170211654e-02
  3.1260873920e-02
  3.1351735837e-02
  3.1442797844e-02
  3.1534060381e-02
  3.1625523891e-02
  3.1717188815e-02
  3.1809055598e-02
  3.1901124683e-02
  3.1993396517e-02
  3.2085871546e-02
  3.2178550217e-02
  3.2271432979e-02
  3.2364520280e-02
  3.2457812573e-02
  3.2551310307e-02
  3.2645013936e-02
  3.2738923913e-02
  3.2833040692e-02
  3.2927364728e-02
  3.3021896479e-02
  3.3116636401e-02
  3.3211584953e-02
  3.3306742594e-02
  3.3402109785e-02
  3.3497686987e-02
  3.3593474663e-02
  3.3689473276e-02
  3.3785683290e-02
  3.3882105172e-02
  3.3978739388e-02
  3.4075586405e-02
  3.4172646692e-02
  3.4269920718e-02
  3.4367408955e-02
  3.4465111874e-02
  3.4563029948e-02
  3.4661163650e-02
  3.4759513456e-02
  3.4858079841e-02
  3.4956863282e-02
  3.5055864258e-02
  3.5155083247e-02
  3.5254520729e-02
  3.5354177186e-02
  3.5454053099e-02
  3.5554148953e-02
  3.5654465230e-02
  3.5755002418e-02
  3.5855761002e-02
  3.5956741469e-02
  3.6057944309e-02
  3.6159370011e-02
  3.6261019066e-02
  3.6362891966e-02
  3.6464989203e-02
  3.6567311272e-02
  3.6669858667e-02
  3.6772631886e-02
  3.6875631425e-02
  3.6978857782e-02
  3.7082311458e-02
  3.7185992952e-02
  3.7289902767e-02
  3.7394041405e-02
  3.7498409370e-02
  3.7603007167e-02
  3.7707835302e-02
  3.7812894283e-02
  3.7918184618e-02
  3.8023706815e-02
  3.8129461387e-02
  3.8235448845e-02
  3.8341669700e-02
  3.8448124469e-02
  3.8554813664e-02
  3.8661737804e-02
  3.8768897404e-02
  3.8876292985e-02
  3.8983925064e-02
  3.9091794164e-02
  3.9199900806e-02
  3.9308245513e-02
  3.9416828809e-02
  3.9525651220e-02
  3.9634713273e-02
  3.9744015494e-02
  3.9853558414e-02
  3.9963342561e-02
  4.0073368468e-02
  4.0183636667e-02
  4.0294147691e-02
  4.0404902074e-02
  4.0515900354e-02
  4.0627143066e-02
  4.0738630750e-02
  4.0850363944e-02
  4.0962343190e-02
  4.1074569029e-02
  4.1187042004e-02
  4.1299762659e-02
  4.1412731540e-02
  4.1525949194e-02
  4.1639416168e-02
  4.1753133011e-02
  4.1867100274e-02
  4.1981318508e-02
  4.2095788266e-02
  4.2210510101e-02
  4.2325484569e-02
  4.2440712226e-02
  4.2556193629e-02
  4.2671929338e-02
  4.2787919912e-02
  4.2904165913e-02
  4.3020667903e-02
  4.3137426446e-02
  4.3254442107e-02
  4.3371715451e-02
  4.3489247047e-02
  4.3607037464e-02
  4.3725087270e-02
  4.3843397038e-02
  4.3961967339e-02
  4.4080798748e-02
  4.4199891840e-02
  4.4319247190e-02
  4.4438865377e-02
  4.4558746978e-02
  4.4678892575e-02
  4.4799302749e-02
  4.4919978081e-02
  4.5040919157e-02
  4.5162126561e-02
  4.5283600880e-02
  4.5405342701e-02
  4.5527352614e-02
  4.5649631209e-02
  4.5772179078e-02
  4.5894996813e-02
  4.6018085010e-02
  4.6141444262e-02
  4.6265075169e-02
  4.6388978327e-02
  4.6513154336e-02
  4.6637603797e-02
  4.6762327312e-02
  4.6887325485e-02
  4.7012598921e-02
  4.7138148225e-02
  4.7263974006e-02
  4.7390076872e-02
  4.7516457432e-02
  4.7643116300e-02
  4.7770054087e-02
  4.7897271408e-02
  4.8024768879e-02
  4.8152547116e-02
  4.8280606737e-02
  4.8408948363e-02
  4.8537572614e-02
  4.8666480113e-02
  4.8795671483e-02
  4.8925147349e-02
  4.9054908339e-02
  4.9184955080e-02
  4.9315288200e-02
  4.9445908332e-02
  4.9576816106e-02
  4.9708012157e-02
  4.9839497119e-02
  4.9971271628e-02
  5.0103336322e-02
  5.0235691840e-02
  5.0368338823e-02
  5.0501277911e-02
  5.0634509749e-02
  5.0768034982e-02
  5.0901854254e-02
  5.1035968215e-02
  5.1170377512e-02
  5.1305082796e-02
  5.1440084720e-02
  5.1575383935e-02
  5.1710981097e-02
  5.1846876862e-02
  5.1983071888e-02
  5.2119566833e-02
  5.2256362358e-02
  5.2393459125e-02
  5.2530857797e-02
  5.2668559039e-02
  5.2806563518e-02
  5.2944871901e-02
  5.3083484857e-02
  5.3222403057e-02
  5.3361627174e-02
  5.3501157881e-02
  5.3640995852e-02
  5.3781141766e-02
  5.3921596299e-02
  5.4062360132e-02
  5.4203433946e-02
  5.4344818422e-02
  5.4486514247e-02
  5.4628522104e-02
  5.4770842681e-02
  5.4913476667e-02
  5.5056424752e-02
  5.5199687628e-02
  5.5343265988e-02
  5.5487160526e-02
  5.5631371939e-02
  5.5775900924e-02
  5.5920748182e-02
  5.6065914412e-02
  5.6211400318e-02
  5.6357206603e-02
  5.6503333973e-02
  5.6649783135e-02
  5.6796554797e-02
  5.6943649670e-02
  5.7091068465e-02
  5.7238811896e-02
  5.7386880678e-02
  5.7535275526e-02
  5.7683997160e-02
  5.7833046299e-02
  5.7982423664e-02
  5.8132129977e-02
  5.8282165963e-02
  5.8432532349e-02
  5.8583229861e-02
  5.8734259230e-02
  5.8885621185e-02
  5.9037316459e-02
  5.9189345786e-02
  5.9341709902e-02
  5.9494409544e-02
  5.9647445451e-02
  5.9800818363e-02
  5.9954529023e-02
  6.0108578174e-02
  6.0262966561e-02
  6.0417694932e-02
  6.0572764036e-02
  6.0728174623e-02
  6.0883927444e-02
  6.1040023253e-02
  6.1196462806e-02
  6.1353246860e-02
  6.1510376173e-02
  6.1667851506e-02
