ocio/luts/VLog_to_lin.spi1d
Version 1
From 0.0000000000 1.0000000000
Length 4096
Components 1
{
  -2.2321428571e-02
  -2.2277821385e-02
  -2.2234214198e-02
  -2.2190607012e-02
  -2.2146999826e-02
  -2.2103392639e-02
  -2.2059785453e-02
  -2.2016178266e-02
  -2.1972571080e-02
  -2.1928963893e-02
  -2.1885356707e-02
  -2.1841749520e-02
  -2.1798142334e-02
  -2.1754535147e-02
  -2.1710927961e-02
  -2.1667320774e-02
  -2.1623713588e-02
  -2.1580106402e-02
  -2.1536499215e-02
  -2.1492892029e-02
  -2.1449284842e-02
  -2.1405677656e-02
  -2.1362070469e-02
  -2.1318463283e-02
  -2.1274856096e-02
  -2.1231248910e-02
  -2.1187641723e-02
  -2.1144034537e-02
  -2.1100427350e-02
  -2.1056820164e-02
  -2.1013212977e-02
  -2.0969605791e-02
  -2.0925998605e-02
  -2.0882391418e-02
  -2.0838784232e-02
  -2.0795177045e-02
  -2.0751569859e-02
  -2.0707962672e-02
  -2.0664355486e-02
  -2.0620748299e-02
  -2.0577141113e-02
  -2.0533533926e-02
  -2.0489926740e-02
  -2.0446319553e-02
  -2.0402712367e-02
  -2.0359105181e-02
  -2.0315497994e-02
  -2.0271890808e-02
  -2.0228283621e-02
  -2.0184676435e-02
  -2.0141069248e-02
  -2.0097462062e-02
  -2.0053854875e-02
  -2.0010247689e-02
  -1.9966640502e-02
  -1.9923033316e-02
  -1.9879426129e-02
  -1.9835818943e-02
  -1.9792211756e-02
  -1.9748604570e-02
  -1.9704997384e-02
  -1.9661390197e-02
  -1.9617783011e-02
  -1.9574175824e-02
  -1.9530568638e-02
  -1.9486961451e-02
  -1.9443354265e-02
  -1.9399747078e-02
  -1.9356139892e-02
  -1.9312532705e-02
  -1.9268925519e-02
  -1.9225318332e-02
  -1.9181711146e-02
  -1.9138103960e-02
  -1.9094496773e-02
  -1.9050889587e-02
  -1.9007282400e-02
  -1.8963675214e-02
  -1.8920068027e-02
  -1.8876460841e-02
  -1.8832853654e-02
  -1.8789246468e-02
  -1.8745639281e-02
  -1.8702032095e-02
  -1.8658424908e-02
  -1.8614817722e-02
  -1.8571210535e-02
  -1.8527603349e-02
  -1.8483996163e-02
  -1.8440388976e-02
  -1.8396781790e-02
  -1.8353174603e-02
  -1.8309567417e-02
  -1.8265960230e-02
  -1.8222353044e-02
  -1.8178745857e-02
  -1.8135138671e-02
  -1.8091531484e-02
  -1.8047924298e-02
  -1.8004317111e-02
  -1.7960709925e-02
  -1.7917102739e-02
  -1.7873495552e-02
  -1.7829888366e-02
  -1.7786281179e-02
  -1.7742673993e-02
  -1.7699066806e-02
  -1.7655459620e-02
  -1.7611852433e-02
  -1.7568245247e-02
  -1.7524638060e-02
  -1.7481030874e-02
  -1.7437423687e-02
  -1.7393816501e-02
  -1.7350209314e-02
  -1.7306602128e-02
  -1.7262994942e-02
  -1.7219387755e-02
  -1.7175780569e-02
  -1.7132173382e-02
  -1.7088566196e-02
  -1.7044959009e-02
  -1.7001351823e-02
  -1.6957744636e-02
  -1.6914137450e-02
  -1.6870530263e-02
  -1.6826923077e-02
  -1.6783315890e-02
  -1.6739708704e-02
  -1.6696101518e-02
  -1.6652494331e-02
  -1.6608887145e-02
  -1.6565279958e-02
  -1.6521672772e-02
  -1.6478065585e-02
  -1.6434458399e-02
  -1.6390851212e-02
  -1.6347244026e-02
  -1.6303636839e-02
  -1.6260029653e-02
  -1.6216422466e-02
  -1.6172815280e-02
  -1.6129208093e-02
  -1.6085600907e-02
  -1.6041993721e-02
  -1.5998386534e-02
  -1.5954779348e-02
  -1.5911172161e-02
  -1.5867564975e-02
  -1.5823957788e-02
  -1.5780350602e-02
  -1.5736743415e-02
  -1.5693136229e-02
  -1.5649529042e-02
  -1.5605921856e-02
  -1.5562314669e-02
  -1.5518707483e-02
  -1.5475100297e-02
  -1.5431493110e-02
  -1.5387885924e-02
  -1.5344278737e-02
  -1.5300671551e-02
  -1.5257064364e-02
  -1.5213457178e-02
  -1.5169849991e-02
  -1.5126242805e-02
  -1.5082635618e-02
  -1.5039028432e-02
  -1.4995421245e-02
  -1.4951814059e-02
  -1.4908206872e-02
  -1.4864599686e-02
  -1.4820992500e-02
  -1.4777385313e-02
  -1.4733778127e-02
  -1.4690170940e-02
  -1.4646563754e-02
  -1.4602956567e-02
  -1.4559349381e-02
  -1.4515742194e-02
  -1.4472135008e-02
  -1.4428527821e-02
  -1.4384920635e-02
  -1.4341313448e-02
  -1.4297706262e-02
  -1.4254099076e-02
  -1.4210491889e-02
  -1.4166884703e-02
  -1.4123277516e-02
  -1.4079670330e-02
  -1.4036063143e-02
  -1.3992455957e-02
  -1.3948848770e-02
  -1.3905241584e-02
  -1.3861634397e-02
  -1.3818027211e-02
  -1.3774420024e-02
  -1.3730812838e-02
  -1.3687205651e-02
  -1.3643598465e-02
  -1.3599991279e-02
  -1.3556384092e-02
  -1.3512776906e-02
  -1.3469169719e-02
  -1.3425562533e-02
  -1.3381955346e-02
  -1.3338348160e-02
  -1.3294740973e-02
  -1.3251133787e-02
  -1.3207526600e-02
  -1.3163919414e-02
  -1.3120312227e-02
  -1.3076705041e-02
  -1.3033097855e-02
  -1.2989490668e-02
  -1.2945883482e-02
  -1.2902276295e-02
  -1.2858669109e-02
  -1.2815061922e-02
  -1.2771454736e-02
  -1.2727847549e-02
  -1.2684240363e-02
  -1.2640633176e-02
  -1.2597025990e-02
  -1.2553418803e-02
  -1.2509811617e-02
  -1.2466204430e-02
  -1.2422597244e-02
  -1.2378990058e-02
  -1.2335382871e-02
  -1.2291775685e-02
  -1.2248168498e-02
  -1.2204561312e-02
  -1.2160954125e-02
  -1.2117346939e-02
  -1.2073739752e-02
  -1.2030132566e-02
  -1.1986525379e-02
  -1.1942918193e-02
  -1.1899311006e-02
  -1.1855703820e-02
  -1.1812096634e-02
  -1.1768489447e-02
  -1.1724882261e-02
  -1.1681275074e-02
  -1.1637667888e-02
  -1.1594060701e-02
  -1.1550453515e-02
  -1.1506846328e-02
  -1.1463239142e-02
  -1.1419631955e-02
  -1.1376024769e-02
  -1.1332417582e-02
  -1.1288810396e-02
  -1.1245203209e-02
  -1.1201596023e-02
  -1.1157988837e-02
  -1.1114381650e-02
  -1.1070774464e-02
  -1.1027167277e-02
  -1.0983560091e-02
  -1.0939952904e-02
  -1.0896345718e-02
  -1.0852738531e-02
  -1.0809131345e-02
  -1.0765524158e-02
  -1.0721916972e-02
  -1.0678309785e-02
  -1.0634702599e-02
  -1.0591095413e-02
  -1.0547488226e-02
  -1.0503881040e-02
  -1.0460273853e-02
  -1.0416666667e-02
  -1.0373059480e-02
  -1.0329452294e-02
  -1.0285845107e-02
  -1.0242237921e-02
  -1.0198630734e-02
  -1.0155023548e-02
  -1.0111416361e-02
  -1.0067809175e-02
  -1.0024201988e-02
  -9.9805948020e-03
  -9.9369876156e-03
  -9.8933804291e-03
  -9.8497732426e-03
  -9.8061660562e-03
  -9.7625588697e-03
  -9.7189516832e-03
  -9.6753444968e-03
  -9.6317373103e-03
  -9.5881301238e-03
  -9.5445229374e-03
  -9.5009157509e-03
  -9.4573085645e-03
  -9.4137013780e-03
  -9.3700941915e-03
  -9.3264870051e-03
  -9.2828798186e-03
  -9.2392726321e-03
  -9.1956654457e-03
  -9.1520582592e-03
  -9.1084510727e-03
  -9.0648438863e-03
  -9.0212366998e-03
  -8.9776295133e-03
  -8.9340223269e-03
  -8.8904151404e-03
  -8.8468079540e-03
  -8.8032007675e-03
  -8.7595935810e-03
  -8.7159863946e-03
  -8.6723792081e-03
  -8.6287720216e-03
  -8.5851648352e-03
  -8.5415576487e-03
  -8.4979504622e-03
  -8.4543432758e-03
  -8.4107360893e-03
  -8.3671289028e-03
  -8.3235217164e-03
  -8.2799145299e-03
  -8.2363073435e-03
  -8.1927001570e-03
  -8.1490929705e-03
  -8.1054857841e-03
  -8.0618785976e-03
  -8.0182714111e-03
  -7.9746642247e-03
  -7.9310570382e-03
  -7.8874498517e-03
  -7.8438426653e-03
  -7.8002354788e-03
  -7.7566282923e-03
  -7.7130211059e-03
  -7.6694139194e-03
  -7.6258067329e-03
  -7.5821995465e-03
  -7.5385923600e-03
  -7.4949851736e-03
  -7.4513779871e-03
  -7.4077708006e-03
  -7.3641636142e-03
  -7.3205564277e-03
  -7.2769492412e-03
  -7.2333420548e-03
  -7.1897348683e-03
  -7.1461276818e-03
  -7.1025204954e-03
  -7.0589133089e-03
  -7.0153061224e-03
  -6.9716989360e-03
  -6.9280917495e-03
  -6.8844845631e-03
  -6.8408773766e-03
  -6.7972701901e-03
  -6.7536630037e-03
  -6.7100558172e-03
  -6.6664486307e-03
  -6.6228414443e-03
  -6.5792342578e-03
  -6.5356270713e-03
  -6.4920198849e-03
  -6.4484126984e-03
  -6.4048055119e-03
  -6.3611983255e-03
  -6.3175911390e-03
  -6.2739839526e-03
  -6.2303767661e-03
  -6.1867695796e-03
  -6.1431623932e-03
  -6.0995552067e-03
  -6.0559480202e-03
  -6.0123408338e-03
  -5.9687336473e-03
  -5.9251264608e-03
  -5.8815192744e-03
  -5.8379120879e-03
  -5.7943049014e-03
  -5.7506977150e-03
  -5.7070905285e-03
  -5.6634833421e-03
  -5.6198761556e-03
  -5.5762689691e-03
  -5.5326617827e-03
  -5.4890545962e-03
  -5.4454474097e-03
  -5.4018402233e-03
  -5.3582330368e-03
  -5.3146258503e-03
  -5.2710186639e-03
  -5.2274114774e-03
  -5.1838042909e-03
  -5.1401971045e-03
  -5.0965899180e-03
  -5.0529827316e-03
  -5.0093755451e-03
  -4.9657683586e-03
  -4.9221611722e-03
  -4.8785539857e-03
  -4.8349467992e-03
  -4.7913396128e-03
  -4.7477324263e-03
  -4.7041252398e-03
  -4.6605180534e-03
  -4.6169108669e-03
  -4.5733036804e-03
  -4.5296964940e-03
  -4.4860893075e-03
  -4.4424821211e-03
  -4.3988749346e-03
  -4.3552677481e-03
  -4.3116605617e-03
  -4.2680533752e-03
  -4.2244461887e-03
  -4.1808390023e-03
  -4.1372318158e-03
  -4.0936246293e-03
  -4.0500174429e-03
  -4.0064102564e-03
  -3.9628030699e-03
  -3.9191958835e-03
  -3.8755886970e-03
  -3.8319815106e-03
  -3.7883743241e-03
  -3.7447671376e-03
  -3.7011599512e-03
  -3.6575527647e-03
  -3.6139455782e-03
  -3.5703383918e-03
  -3.5267312053e-03
  -3.4831240188e-03
  -3.4395168324e-03
  -3.3959096459e-03
  -3.3523024594e-03
  -3.3086952730e-03
  -3.2650880865e-03
  -3.2214809001e-03
  -3.1778737136e-03
  -3.1342665271e-03
  -3.0906593407e-03
  -3.0470521542e-03
  -3.0034449677e-03
  -2.9598377813e-03
  -2.9162305948e-03
  -2.8726234083e-03
  -2.8290162219e-03
  -2.7854090354e-03
  -2.7418018489e-03
  -2.6981946625e-03
  -2.6545874760e-03
  -2.6109802896e-03
  -2.5673731031e-03
  -2.5237659166e-03
  -2.4801587302e-03
  -2.4365515437e-03
  -2.3929443572e-03
  -2.3493371708e-03
  -2.3057299843e-03
  -2.2621227978e-03
  -2.2185156114e-03
  -2.1749084249e-03
  -2.1313012384e-03
  -2.0876940520e-03
  -2.0440868655e-03
  -2.0004796791e-03
  -1.9568724926e-03
  -1.9132653061e-03
  -1.8696581197e-03
  -1.8260509332e-03
  -1.7824437467e-03
  -1.7388365603e-03
  -1.6952293738e-03
  -1.6516221873e-03
  -1.6080150009e-03
  -1.5644078144e-03
  -1.5208006279e-03
  -1.4771934415e-03
  -1.4335862550e-03
  -1.3899790686e-03
  -1.3463718821e-03
  -1.3027646956e-03
  -1.2591575092e-03
  -1.2155503227e-03
  -1.1719431362e-03
  -1.1283359498e-03
  -1.0847287633e-03
  -1.0411215768e-03
  -9.9751439037e-04
  -9.5390720391e-04
  -9.1030001744e-04
  -8.6669283098e-04
  -8.2308564451e-04
  -7.7947845805e-04
  -7.3587127159e-04
  -6.9226408512e-04
  -6.4865689866e-04
  -6.0504971219e-04
  -5.6144252573e-04
  -5.1783533926e-04
  -4.7422815280e-04
  -4.3062096634e-04
  -3.8701377987e-04
  -3.4340659341e-04
  -2.9979940694e-04
  -2.5619222048e-04
  -2.1258503401e-04
  -1.6897784755e-04
  -1.2537066108e-04
  -8.1763474621e-05
  -3.8156288156e-05
  5.4508983080e-06
  4.9058084772e-05
  9.2665271237e-05
  1.3627245770e-04
  1.7987964417e-04
  2.2348683063e-04
  2.6709401709e-04
  3.1070120356e-04
  3.5430839002e-04
  3.9791557649e-04
  4.4152276295e-04
  4.8512994942e-04
  5.2873713588e-04
  5.7234432234e-04
  6.1595150881e-04
  6.5955869527e-04
  7.0316588174e-04
  7.4677306820e-04
  7.9038025467e-04
  8.3398744113e-04
  8.7759462759e-04
  9.2120181406e-04
  9.6480900052e-04
  1.0084161870e-03
  1.0520233735e-03
  1.0956305599e-03
  1.1392377464e-03
  1.1828449328e-03
  1.2264521193e-03
  1.2700593058e-03
  1.3136664922e-03
  1.3572736787e-03
  1.4008808652e-03
  1.4444880516e-03
  1.4880952381e-03
  1.5317024246e-03
  1.5753096110e-03
  1.6189167975e-03
  1.6625239840e-03
  1.7061311704e-03
  1.7497383569e-03
  1.7933455433e-03
  1.8369527298e-03
  1.8805599163e-03
  1.9241671027e-03
  1.9677742892e-03
  2.0113814757e-03
  2.0549886621e-03
  2.0985958486e-03
  2.1422030351e-03
  2.1858102215e-03
  2.2294174080e-03
  2.2730245945e-03
  2.3166317809e-03
  2.3602389674e-03
  2.4038461538e-03
  2.4474533403e-03
  2.4910605268e-03
  2.5346677132e-03
  2.5782748997e-03
  2.6218820862e-03
  2.6654892726e-03
  2.7090964591e-03
  2.7527036456e-03
  2.7963108320e-03
  2.8399180185e-03
  2.8835252050e-03
  2.9271323914e-03
  2.9707395779e-03
  3.0143467643e-03
  3.0579539508e-03
  3.1015611373e-03
  3.1451683237e-03
  3.1887755102e-03
  3.2323826967e-03
  3.2759898831e-03
  3.3195970696e-03
  3.3632042561e-03
  3.4068114425e-03
  3.4504186290e-03
  3.4940258155e-03
  3.5376330019e-03
  3.5812401884e-03
  3.6248473748e-03
  3.6684545613e-03
  3.7120617478e-03
  3.7556689342e-03
  3.7992761207e-03
  3.8428833072e-03
  3.8864904936e-03
  3.9300976801e-03
  3.9737048666e-03
  4.0173120530e-03
  4.0609192395e-03
  4.1045264260e-03
  4.1481336124e-03
  4.1917407989e-03
  4.2353479853e-03
  4.2789551718e-03
  4.3225623583e-03
  4.3661695447e-03
  4.4097767312e-03
  4.4533839177e-03
  4.4969911041e-03
  4.5405982906e-03
  4.5842054771e-03
  4.6278126635e-03
  4.6714198500e-03
  4.7150270365e-03
  4.7586342229e-03
  4.8022414094e-03
  4.8458485958e-03
  4.8894557823e-03
  4.9330629688e-03
  4.9766701552e-03
  5.0202773417e-03
  5.0638845282e-03
  5.1074917146e-03
  5.1510989011e-03
  5.1947060876e-03
  5.2383132740e-03
  5.2819204605e-03
  5.3255276470e-03
  5.3691348334e-03
  5.4127420199e-03
  5.4563492063e-03
  5.4999563928e-03
  5.5435635793e-03
  5.5871707657e-03
  5.6307779522e-03
  5.6743851387e-03
  5.7179923251e-03
  5.7615995116e-03
  5.8052066981e-03
  5.8488138845e-03
  5.8924210710e-03
  5.9360282575e-03
  5.9796354439e-03
  6.0232426304e-03
  6.0668498168e-03
  6.1104570033e-03
  6.1540641898e-03
  6.1976713762e-03
  6.2412785627e-03
  6.2848857492e-03
  6.3284929356e-03
  6.3721001221e-03
  6.4157073086e-03
  6.4593144950e-03
  6.5029216815e-03
  6.5465288680e-03
  6.5901360544e-03
  6.6337432409e-03
  6.6773504274e-03
  6.7209576138e-03
  6.7645648003e-03
  6.8081719867e-03
  6.8517791732e-03
  6.8953863597e-03
  6.9389935461e-03
  6.9826007326e-03
  7.0262079191e-03
  7.0698151055e-03
  7.1134222920e-03
  7.1570294785e-03
  7.2006366649e-03
  7.2442438514e-03
  7.2878510379e-03
  7.3314582243e-03
  7.3750654108e-03
  7.4186725972e-03
  7.4622797837e-03
  7.5058869702e-03
  7.5494941566e-03
  7.5931013431e-03
  7.6367085296e-03
  7.6803157160e-03
  7.7239229025e-03
  7.7675300890e-03
  7.8111372754e-03
  7.8547444619e-03
  7.8983516484e-03
  7.9419588348e-03
  7.9855660213e-03
  8.0291732077e-03
  8.0727803942e-03
  8.1163875807e-03
  8.1599947671e-03
  8.2036019536e-03
  8.2472091401e-03
  8.2908163265e-03
  8.3344235130e-03
  8.3780306995e-03
  8.4216378859e-03
  8.4652450724e-03
  8.5088522589e-03
  8.5524594453e-03
  8.5960666318e-03
  8.6396738182e-03
  8.6832810047e-03
  8.7268881912e-03
  8.7704953776e-03
  8.8141025641e-03
  8.8577097506e-03
  8.9013169370e-03
  8.9449241235e-03
  8.9885313100e-03
  9.0321384964e-03
  9.0757456829e-03
  9.1193528694e-03
  9.1629600558e-03
  9.2065672423e-03
  9.2501744287e-03
  9.2937816152e-03
  9.3373888017e-03
  9.3809959881e-03
  9.4246031746e-03
  9.4682103611e-03
  9.5118175475e-03
  9.5554247340e-03
  9.5990319205e-03
  9.6426391069e-03
  9.6862462934e-03
  9.7298534799e-03
  9.7734606663e-03
  9.8170678528e-03
  9.8606750392e-03
  9.9042822257e-03
  9.9478894122e-03
  9.9914965986e-03
  1.0035192317e-02
  1.0078932254e-02
  1.0122774144e-02
  1.0166718226e-02
  1.0210764738e-02
  1.0254913918e-02
  1.0299166005e-02
  1.0343521241e-02
  1.0387979864e-02
  1.0432542116e-02
  1.0477208238e-02
  1.0521978474e-02
  1.0566853064e-02
  1.0611832253e-02
  1.0656916284e-02
  1.0702105403e-02
  1.0747399852e-02
  1.0792799879e-02
  1.0838305730e-02
  1.0883917650e-02
  1.0929635887e-02
  1.0975460690e-02
  1.1021392306e-02
  1.1067430984e-02
  1.1113576974e-02
  1.1159830526e-02
  1.1206191891e-02
  1.1252661320e-02
  1.1299239065e-02
  1.1345925378e-02
  1.1392720513e-02
  1.1439624723e-02
  1.1486638263e-02
  1.1533761387e-02
  1.1580994350e-02
  1.1628337409e-02
  1.1675790821e-02
  1.1723354841e-02
  1.1771029730e-02
  1.1818815744e-02
  1.1866713143e-02
  1.1914722186e-02
  1.1962843134e-02
  1.2011076247e-02
  1.2059421788e-02
  1.2107880017e-02
  1.2156451198e-02
  1.2205135594e-02
  1.2253933469e-02
  1.2302845087e-02
  1.2351870714e-02
  1.2401010615e-02
  1.2450265057e-02
  1.2499634306e-02
  1.2549118630e-02
  1.2598718298e-02
  1.2648433578e-02
  1.2698264739e-02
  1.2748212053e-02
  1.2798275789e-02
  1.2848456219e-02
  1.2898753615e-02
  1.2949168250e-02
  1.2999700397e-02
  1.3050350329e-02
  1.3101118322e-02
  1.3152004650e-02
  1.3203009589e-02
  1.3254133417e-02
  1.3305376409e-02
  1.3356738844e-02
  1.3408221000e-02
  1.3459823156e-02
  1.3511545592e-02
  1.3563388589e-02
  1.3615352426e-02
  1.3667437387e-02
  1.3719643753e-02
  1.3771971807e-02
  1.3824421833e-02
  1.3876994115e-02
  1.3929688938e-02
  1.3982506588e-02
  1.4035447351e-02
  1.4088511515e-02
  1.4141699366e-02
  1.4195011192e-02
  1.4248447284e-02
  1.4302007931e-02
  1.4355693422e-02
  1.4409504049e-02
  1.4463440104e-02
  1.4517501879e-02
  1.4571689667e-02
  1.4626003762e-02
  1.4680444458e-02
  1.4735012050e-02
  1.4789706834e-02
  1.4844529107e-02
  1.4899479165e-02
  1.4954557307e-02
  1.5009763831e-02
  1.5065099036e-02
  1.5120563223e-02
  1.5176156691e-02
  1.5231879743e-02
  1.5287732680e-02
  1.5343715805e-02
  1.5399829421e-02
  1.5456073834e-02
  1.5512449346e-02
  1.5568956265e-02
  1.5625594897e-02
  1.5682365548e-02
  1.5739268526e-02
  1.5796304139e-02
  1.5853472697e-02
  1.5910774510e-02
  1.5968209889e-02
  1.6025779144e-02
  1.6083482587e-02
  1.6141320532e-02
  1.6199293292e-02
  1.6257401181e-02
  1.6315644514e-02
  1.6374023607e-02
  1.6432538776e-02
  1.6491190339e-02
  1.6549978613e-02
  1.6608903917e-02
  1.6667966571e-02
  1.6727166894e-02
  1.6786505208e-02
  1.6845981834e-02
  1.6905597094e-02
  1.6965351313e-02
  1.7025244812e-02
  1.7085277918e-02
  1.7145450956e-02
  1.7205764251e-02
  1.7266218132e-02
  1.7326812924e-02
  1.7387548958e-02
  1.7448426561e-02
  1.7509446065e-02
  1.7570607800e-02
  1.7631912097e-02
  1.7693359288e-02
  1.7754949708e-02
  1.7816683689e-02
  1.7878561566e-02
  1.7940583675e-02
  1.8002750351e-02
  1.8065061933e-02
  1.8127518757e-02
  1.8190121162e-02
  1.8252869487e-02
  1.8315764074e-02
  1.8378805261e-02
  1.8441993392e-02
  1.8505328809e-02
  1.8568811854e-02
  1.8632442873e-02
  1.8696222210e-02
  1.8760150210e-02
  1.8824227221e-02
  1.8888453590e-02
  1.8952829664e-02
  1.9017355793e-02
  1.9082032326e-02
  1.9146859615e-02
  1.9211838010e-02
  1.9276967863e-02
  1.9342249528e-02
  1.9407683359e-02
  1.9473269710e-02
  1.9539008937e-02
  1.9604901396e-02
  1.9670947444e-02
  1.9737147439e-02
  1.9803501741e-02
  1.9870010708e-02
  1.9936674702e-02
  2.0003494083e-02
  2.0070469214e-02
  2.0137600458e-02
  2.0204888179e-02
  2.0272332741e-02
  2.0339934510e-02
  2.0407693853e-02
  2.0475611136e-02
  2.0543686729e-02
  2.0611920999e-02
  2.0680314317e-02
  2.0748867054e-02
  2.0817579581e-02
  2.0886452270e-02
  2.0955485495e-02
  2.1024679631e-02
  2.1094035051e-02
  2.1163552133e-02
  2.1233231253e-02
  2.1303072788e-02
  2.1373077117e-02
  2.1443244620e-02
  2.1513575677e-02
  2.1584070670e-02
  2.1654729979e-02
  2.1725553989e-02
  2.1796543083e-02
  2.1867697647e-02
  2.1939018065e-02
  2.2010504724e-02
  2.2082158012e-02
  2.2153978318e-02
  2.2225966030e-02
  2.2298121538e-02
  2.2370445235e-02
  2.2442937511e-02
  2.2515598760e-02
  2.2588429376e-02
  2.2661429754e-02
  2.2734600288e-02
  2.2807941376e-02
  2.2881453416e-02
  2.2955136805e-02
  2.3028991944e-02
  2.3103019232e-02
  2.3177219071e-02
  2.3251591863e-02
  2.3326138011e-02
  2.3400857920e-02
  2.3475751993e-02
  2.3550820638e-02
  2.3626064261e-02
  2.3701483269e-02
  2.3777078073e-02
  2.3852849081e-02
  2.3928796705e-02
  2.4004921355e-02
  2.4081223445e-02
  2.4157703388e-02
  2.4234361598e-02
  2.4311198492e-02
  2.4388214486e-02
  2.4465409997e-02
  2.4542785443e-02
  2.4620341245e-02
  2.4698077822e-02
  2.4775995596e-02
  2.4854094988e-02
  2.4932376424e-02
  2.5010840326e-02
  2.5089487121e-02
  2.5168317233e-02
  2.5247331092e-02
  2.5326529125e-02
  2.5405911761e-02
  2.5485479430e-02
  2.5565232565e-02
  2.5645171596e-02
  2.5725296959e-02
  2.5805609086e-02
  2.5886108413e-02
  2.5966795377e-02
  2.6047670414e-02
  2.6128733964e-02
  2.6209986466e-02
  2.6291428360e-02
  2.6373060087e-02
  2.6454882090e-02
  2.6536894813e-02
  2.6619098700e-02
  2.6701494197e-02
  2.6784081750e-02
  2.6866861807e-02
  2.6949834817e-02
  2.7033001229e-02
  2.7116361494e-02
  2.7199916065e-02
  2.7283665393e-02
  2.7367609934e-02
  2.7451750141e-02
  2.7536086472e-02
  2.7620619383e-02
  2.7705349332e-02
  2.7790276779e-02
  2.7875402184e-02
  2.7960726008e-02
  2.8046248715e-02
  2.8131970767e-02
  2.8217892629e-02
  2.8304014768e-02
  2.8390337649e-02
  2.8476861740e-02
  2.8563587512e-02
  2.8650515433e-02
  2.8737645975e-02
  2.8824979611e-02
  2.8912516813e-02
  2.9000258056e-02
  2.9088203816e-02
  2.9176354570e-02
  2.9264710795e-02
  2.9353272970e-02
  2.9442041575e-02
  2.9531017092e-02
  2.9620200002e-02
  2.9709590790e-02
  2.9799189940e-02
  2.9888997936e-02
  2.9979015267e-02
  3.0069242420e-02
  3.0159679885e-02
  3.0250328150e-02
  3.0341187709e-02
  3.0432259052e-02
  3.0523542675e-02
  3.0615039072e-02
  3.0706748738e-02
  3.0798672170e-02
  3.0890809868e-02
  3.0983162331e-02
  3.1075730058e-02
  3.1168513553e-02
  3.1261513317e-02
  3.1354729855e-02
  3.1448163672e-02
  3.1541815275e-02
  3.1635685171e-02
  3.1729773869e-02
  3.1824081879e-02
  3.1918609713e-02
  3.2013357882e-02
  3.2108326901e-02
  3.2203517283e-02
  3.2298929546e-02
  3.2394564206e-02
  3.2490421781e-02
  3.2586502792e-02
  3.2682807758e-02
  3.2779337203e-02
  3.2876091649e-02
  3.2973071621e-02
  3.3070277643e-02
  3.3167710245e-02
  3.3265369952e-02
  3.3363257296e-02
  3.3461372806e-02
  3.3559717014e-02
  3.3658290453e-02
  3.3757093658e-02
  3.3856127165e-02
  3.3955391509e-02
  3.4054887229e-02
  3.4154614865e-02
  3.4254574956e-02
  3.4354768045e-02
  3.4455194676e-02
  3.4555855391e-02
  3.4656750737e-02
  3.4757881262e-02
  3.4859247512e-02
  3.4960850037e-02
  3.5062689389e-02
  3.5164766118e-02
  3.5267080779e-02
  3.5369633927e-02
  3.5472426116e-02
  3.5575457904e-02
  3.5678729850e-02
  3.5782242514e-02
  3.5885996455e-02
  3.5989992238e-02
  3.6094230425e-02
  3.6198711582e-02
  3.6303436275e-02
  3.6408405072e-02
  3.6513618541e-02
  3.6619077253e-02
  3.6724781780e-02
  3.6830732694e-02
  3.6936930570e-02
  3.7043375983e-02
  3.7150069511e-02
  3.7257011732e-02
  3.7364203225e-02
  3.7471644572e-02
  3.7579336355e-02
  3.7687279157e-02
  3.7795473564e-02
  3.7903920162e-02
  3.8012619539e-02
  3.8121572285e-02
  3.8230778989e-02
  3.8340240244e-02
  3.8449956644e-02
  3.8559928782e-02
  3.8670157255e-02
  3.8780642660e-02
  3.8891385597e-02
  3.9002386665e-02
  3.9113646467e-02
  3.9225165605e-02
  3.9336944683e-02
  3.9448984309e-02
  3.9561285089e-02
  3.9673847631e-02
  3.9786672546e-02
  3.9899760446e-02
  4.0013111943e-02
  4.0126727653e-02
  4.0240608190e-02
  4.0354754172e-02
  4.0469166217e-02
  4.0583844947e-02
  4.0698790983e-02
  4.0814004947e-02
  4.0929487464e-02
  4.1045239160e-02
  4.1161260663e-02
  4.1277552601e-02
  4.1394115605e-02
  4.1510950307e-02
  4.1628057339e-02
  4.1745437338e-02
  4.1863090938e-02
  4.1981018778e-02
  4.2099221497e-02
  4.2217699736e-02
  4.2336454136e-02
  4.2455485342e-02
  4.2574793999e-02
  4.2694380754e-02
  4.2814246254e-02
  4.2934391149e-02
  4.3054816092e-02
  4.3175521733e-02
  4.3296508729e-02
  4.3417777734e-02
  4.3539329406e-02
  4.3661164404e-02
  4.3783283388e-02
  4.3905687019e-02
  4.4028375963e-02
  4.4151350883e-02
  4.4274612447e-02
  4.4398161322e-02
  4.4521998177e-02
  4.4646123686e-02
  4.4770538519e-02
  4.4895243352e-02
  4.5020238860e-02
  4.5145525722e-02
  4.5271104615e-02
  4.5396976221e-02
  4.5523141223e-02
  4.5649600303e-02
  4.5776354148e-02
  4.5903403445e-02
  4.6030748882e-02
  4.6158391149e-02
  4.6286330939e-02
  4.6414568944e-02
  4.6543105861e-02
  4.6671942385e-02
  4.6801079215e-02
  4.6930517052e-02
  4.7060256596e-02
  4.7190298551e-02
  4.7320643622e-02
  4.7451292515e-02
  4.7582245939e-02
  4.7713504603e-02
  4.7845069219e-02
  4.7976940500e-02
  4.8109119161e-02
  4.8241605918e-02
  4.8374401489e-02
  4.8507506595e-02
  4.8640921957e-02
  4.8774648297e-02
  4.8908686342e-02
  4.9043036816e-02
  4.9177700450e-02
  4.9312677972e-02
  4.9447970114e-02
  4.9583577609e-02
  4.9719501193e-02
  4.9855741603e-02
